;FLAVOR:Marlin
;TIME:3931
;Filament used: 4.5073m
;Layer height: 0.2
;Generated with Cura_SteamEngine master
M140 S60
M105
M190 S60
M104 S200
M105
M109 S200
M82 ;absolute extrusion mode
; Ender 3 Custom Start G-code
G28 ; Home all axes
G92 E0 ; Reset Extruder
G1 Z2.0 F3000 ; Move Z Axis up little to prevent scratching of Heat Bed
G1 X0.1 Y20 Z0.3 F5000.0 ; Move to start position
G1 X0.1 Y200.0 Z0.3 F1500.0 E15 ; Draw the first line
G1 X0.4 Y200.0 Z0.3 F5000.0 ; Move to side a little
G1 X0.4 Y20 Z0.3 F1500.0 E30 ; Draw the second line
G92 E0 ; Reset Extruder
G1 Z2.0 F3000 ; Move Z Axis up little to prevent scratching of Heat Bed
; End of custom start GCode
G92 E0
G1 F2400 E-5
;LAYER_COUNT:245
;LAYER:0
M107
M204 S5000
M205 X30 Y30
G0 F3600 X98.896 Y106.298 Z0.2
M204 S500
M205 X20 Y20
;TYPE:SKIRT
G1 F2400 E0
G1 F1800 X99.431 Y105.823 E0.0238
G1 X100.016 Y105.411 E0.04759
G1 X100.643 Y105.066 E0.0714
G1 X101.304 Y104.794 E0.09517
G1 X101.992 Y104.597 E0.11897
G1 X102.697 Y104.478 E0.14275
G1 X103.411 Y104.439 E0.16654
G1 X104.223 Y104.491 E0.1936
G1 X106.676 Y104.807 E0.27586
G1 X112 Y105.271 E0.45361
G1 X117.283 Y105.431 E0.6294
G1 X122.586 Y105.292 E0.80584
G1 X127.888 Y104.852 E0.98279
G1 X130.794 Y104.489 E1.0802
G1 X131.508 Y104.441 E1.104
G1 X132.222 Y104.472 E1.12777
G1 X132.929 Y104.582 E1.15157
G1 X133.619 Y104.771 E1.17536
G1 X134.283 Y105.035 E1.19913
G1 X134.914 Y105.372 E1.22292
G1 X135.504 Y105.778 E1.24674
G1 X136.044 Y106.246 E1.27051
G1 X136.529 Y106.772 E1.2943
G1 X136.952 Y107.349 E1.3181
G1 X137.308 Y107.969 E1.34188
G1 X137.593 Y108.625 E1.36567
G1 X137.802 Y109.309 E1.38946
G1 X137.934 Y110.012 E1.41325
G1 X137.987 Y110.726 E1.43706
G1 X137.96 Y111.44 E1.46082
G1 X137.853 Y112.148 E1.48464
G1 X137.668 Y112.838 E1.5084
G1 X137.535 Y113.204 E1.52135
G1 X136.826 Y114.987 E1.58517
G1 X135.027 Y120.059 E1.76416
G1 X133.544 Y125.134 E1.94002
G1 X132.333 Y130.346 E2.11799
G1 X131.867 Y132.847 E2.2026
G1 X131.105 Y138.14 E2.38046
G1 X130.649 Y143.406 E2.55627
G1 X130.488 Y148.932 E2.74014
G1 X130.478 Y154.049 E2.91033
G1 X130.437 Y154.763 E2.93412
G1 X130.316 Y155.468 E2.95791
G1 X130.117 Y156.155 E2.9817
G1 X129.843 Y156.816 E3.0055
G1 X129.497 Y157.442 E3.02929
G1 X129.083 Y158.026 E3.0531
G1 X128.607 Y158.559 E3.07687
G1 X128.074 Y159.036 E3.10066
G1 X127.491 Y159.451 E3.12446
G1 X127.02 Y159.721 E3.14252
G1 X121.17 Y162.748 E3.36159
G1 X119.309 Y163.817 E3.43297
G1 X118.836 Y164.064 E3.45072
G1 X117.413 Y164.73 E3.50298
G1 X116.427 Y165.096 E3.53796
G1 X116.013 Y165.212 E3.55226
G1 X114.997 Y165.409 E3.58668
G1 X113.852 Y165.537 E3.625
G1 X112.941 Y165.574 E3.65533
G1 X109.986 Y165.482 E3.75366
G1 X104.603 Y165.516 E3.9327
G1 X100.37 Y165.752 E4.07371
G1 X99.655 Y165.752 E4.09749
G1 X98.944 Y165.672 E4.12129
G1 X98.247 Y165.513 E4.14506
G1 X97.842 Y165.382 E4.15922
G1 X90.98 Y162.906 E4.40186
G1 X85.918 Y161.444 E4.5771
G1 X80.735 Y160.259 E4.75394
G1 X75.088 Y159.307 E4.94441
G1 X74.39 Y159.149 E4.96821
G1 X73.715 Y158.914 E4.99198
G1 X73.07 Y158.605 E5.01577
G1 X72.463 Y158.226 E5.03957
G1 X71.903 Y157.782 E5.06334
G1 X71.395 Y157.278 E5.08714
G1 X70.947 Y156.72 E5.11094
G1 X70.564 Y156.116 E5.13473
G1 X70.251 Y155.473 E5.15851
G1 X70.011 Y154.799 E5.18231
G1 X69.848 Y154.102 E5.20612
G1 X69.764 Y153.392 E5.2299
G1 X69.752 Y152.995 E5.24311
G1 X69.753 Y145.859 E5.48045
G1 X69.793 Y145.145 E5.50424
G1 X69.913 Y144.44 E5.52802
G1 X70.11 Y143.752 E5.55183
G1 X70.383 Y143.091 E5.57561
G1 X70.728 Y142.465 E5.59939
G1 X71.141 Y141.88 E5.6232
G1 X71.616 Y141.346 E5.64697
G1 X71.972 Y141.014 E5.66316
G1 X75.67 Y137.823 E5.82562
G1 X79.499 Y134.152 E6.00205
G1 X83.135 Y130.245 E6.17956
G1 X84.803 Y128.295 E6.26491
G1 X88.084 Y124.107 E6.44186
G1 X91.116 Y119.753 E6.61833
G1 X93.89 Y115.245 E6.79438
G1 X96.436 Y110.534 E6.97249
G1 X97.653 Y108.036 E7.0649
G1 X98.001 Y107.411 E7.0887
G1 X98.418 Y106.829 E7.11251
G1 X98.896 Y106.298 E7.13627
M204 S5000
M205 X30 Y30
G0 F3600 X99.225 Y106.535
M204 S500
M205 X20 Y20
G1 F1800 X99.749 Y106.082 E7.15931
G1 X100.321 Y105.693 E7.18232
G1 X100.935 Y105.371 E7.20538
G1 X101.581 Y105.123 E7.22839
G1 X102.252 Y104.951 E7.25143
G1 X102.938 Y104.857 E7.27446
G1 X103.631 Y104.843 E7.29752
G1 X104.172 Y104.888 E7.31557
G1 X106.64 Y105.206 E7.39834
G1 X111.971 Y105.67 E7.57632
G1 X117.282 Y105.832 E7.75304
G1 X122.594 Y105.692 E7.92978
G1 X127.947 Y105.248 E8.10844
G1 X130.844 Y104.886 E8.20554
G1 X131.535 Y104.84 E8.22857
G1 X132.226 Y104.874 E8.25158
G1 X132.91 Y104.987 E8.27464
G1 X133.575 Y105.179 E8.29766
G1 X134.214 Y105.445 E8.32068
G1 X134.819 Y105.784 E8.34375
G1 X135.38 Y106.19 E8.36678
G1 X135.89 Y106.658 E8.38981
G1 X136.343 Y107.181 E8.41282
G1 X136.733 Y107.754 E8.43587
G1 X137.055 Y108.367 E8.4589
G1 X137.303 Y109.014 E8.48195
G1 X137.476 Y109.684 E8.50496
G1 X137.57 Y110.37 E8.52799
G1 X137.584 Y111.063 E8.55105
G1 X137.518 Y111.752 E8.57407
G1 X137.374 Y112.429 E8.59709
G1 X137.164 Y113.056 E8.61908
G1 X136.446 Y114.863 E8.68375
G1 X134.646 Y119.934 E8.86273
G1 X133.154 Y125.04 E9.03965
G1 X131.94 Y130.269 E9.2182
G1 X131.474 Y132.766 E9.30268
G1 X130.709 Y138.083 E9.48135
G1 X130.249 Y143.396 E9.65872
G1 X130.088 Y148.919 E9.84249
G1 X130.078 Y154.049 E10.01312
G1 X130.037 Y154.74 E10.03614
G1 X129.916 Y155.422 E10.05918
G1 X129.718 Y156.085 E10.08219
G1 X129.444 Y156.721 E10.10522
G1 X129.099 Y157.322 E10.12827
G1 X128.687 Y157.879 E10.15132
G1 X128.214 Y158.384 E10.17433
G1 X127.685 Y158.832 E10.19739
G1 X126.836 Y159.366 E10.23075
G1 X120.993 Y162.39 E10.44957
G1 X119.11 Y163.471 E10.52178
G1 X118.666 Y163.701 E10.53842
G1 X117.243 Y164.367 E10.59067
G1 X116.319 Y164.71 E10.62345
G1 X115.905 Y164.826 E10.63775
G1 X114.953 Y165.012 E10.67002
G1 X113.808 Y165.14 E10.70834
G1 X112.954 Y165.174 E10.73676
G1 X109.996 Y165.082 E10.83519
G1 X104.599 Y165.116 E11.0147
G1 X100.348 Y165.353 E11.15631
G1 X99.655 Y165.351 E11.17936
G1 X98.968 Y165.27 E11.20237
G1 X97.977 Y165.006 E11.23648
G1 X91.1 Y162.525 E11.47964
G1 X86.009 Y161.054 E11.65589
G1 X80.809 Y159.865 E11.83331
G1 X75.154 Y158.912 E12.02405
G1 X74.479 Y158.758 E12.04707
G1 X73.826 Y158.527 E12.07011
G1 X73.205 Y158.222 E12.09312
G1 X72.622 Y157.848 E12.11616
G1 X72.087 Y157.409 E12.13918
G1 X71.605 Y156.911 E12.16223
G1 X71.184 Y156.361 E12.18527
G1 X70.83 Y155.766 E12.20829
G1 X70.546 Y155.134 E12.23134
G1 X70.337 Y154.474 E12.25437
G1 X70.205 Y153.794 E12.2774
G1 X70.152 Y152.995 E12.30404
G1 X70.153 Y145.859 E12.54138
G1 X70.193 Y145.168 E12.5644
G1 X70.313 Y144.486 E12.58744
G1 X70.51 Y143.822 E12.61047
G1 X70.782 Y143.185 E12.63351
G1 X71.126 Y142.584 E12.65654
G1 X71.537 Y142.027 E12.67956
G1 X72.233 Y141.317 E12.71263
G1 X75.935 Y138.123 E12.87526
G1 X79.785 Y134.431 E13.05267
G1 X83.438 Y130.507 E13.23098
G1 X85.104 Y128.557 E13.31629
G1 X88.411 Y124.338 E13.49458
G1 X91.456 Y119.966 E13.67179
G1 X94.233 Y115.453 E13.84803
G1 X96.784 Y110.73 E14.02657
G1 X98.012 Y108.211 E14.11978
G1 X98.351 Y107.607 E14.14282
G1 X98.757 Y107.046 E14.16585
G1 X99.225 Y106.535 E14.1889
M204 S5000
M205 X30 Y30
G0 F3600 X99.553 Y106.775
M204 S500
M205 X20 Y20
G1 F1800 X100.065 Y106.345 E14.21113
G1 X100.625 Y105.978 E14.2334
G1 X101.225 Y105.681 E14.25567
G1 X101.855 Y105.458 E14.2779
G1 X102.508 Y105.311 E14.30016
G1 X103.174 Y105.244 E14.32242
G1 X104.121 Y105.285 E14.35395
G1 X106.58 Y105.601 E14.43641
G1 X111.959 Y106.07 E14.61599
G1 X117.28 Y106.232 E14.79305
G1 X122.62 Y106.091 E14.97072
G1 X127.98 Y105.647 E15.14961
G1 X130.893 Y105.283 E15.24725
G1 X131.561 Y105.24 E15.26951
G1 X132.229 Y105.277 E15.29176
G1 X132.888 Y105.393 E15.31402
G1 X133.528 Y105.587 E15.33626
G1 X134.141 Y105.856 E15.35853
G1 X134.717 Y106.196 E15.38077
G1 X135.249 Y106.602 E15.40303
G1 X135.728 Y107.069 E15.42528
G1 X136.148 Y107.589 E15.44752
G1 X136.503 Y108.156 E15.46977
G1 X136.788 Y108.762 E15.49204
G1 X136.999 Y109.397 E15.51429
G1 X137.132 Y110.052 E15.53652
G1 X137.187 Y110.719 E15.55878
G1 X137.161 Y111.388 E15.58105
G1 X137.056 Y112.048 E15.60328
G1 X136.792 Y112.909 E15.63323
G1 X136.07 Y114.725 E15.69823
G1 X134.266 Y119.81 E15.87769
G1 X132.771 Y124.926 E16.05496
G1 X131.547 Y130.197 E16.23494
G1 X131.078 Y132.71 E16.31997
G1 X130.31 Y138.045 E16.49924
G1 X129.851 Y143.348 E16.67628
G1 X129.688 Y148.944 E16.86248
G1 X129.678 Y154.048 E17.03224
G1 X129.637 Y154.716 E17.0545
G1 X129.516 Y155.374 E17.07675
G1 X129.318 Y156.013 E17.099
G1 X129.045 Y156.623 E17.12123
G1 X128.701 Y157.197 E17.14349
G1 X128.291 Y157.726 E17.16575
G1 X127.821 Y158.202 E17.188
G1 X127.298 Y158.619 E17.21024
G1 X126.652 Y159.01 E17.23536
G1 X120.816 Y162.03 E17.45391
G1 X118.911 Y163.124 E17.52698
G1 X118.497 Y163.339 E17.5425
G1 X117.074 Y164.005 E17.59475
G1 X116.211 Y164.325 E17.62537
G1 X115.797 Y164.441 E17.63967
G1 X114.908 Y164.614 E17.66979
G1 X113.763 Y164.742 E17.70811
G1 X112.966 Y164.774 E17.73464
G1 X110.006 Y164.682 E17.83314
G1 X104.574 Y164.716 E18.01381
G1 X100.326 Y164.953 E18.15532
G1 X99.657 Y164.951 E18.17757
G1 X98.993 Y164.868 E18.19982
G1 X98.113 Y164.63 E18.23015
G1 X91.212 Y162.14 E18.47416
G1 X86.12 Y160.67 E18.65043
G1 X80.893 Y159.474 E18.82878
G1 X75.221 Y158.518 E19.02009
G1 X74.569 Y158.368 E19.04234
G1 X73.94 Y158.14 E19.06459
G1 X73.342 Y157.84 E19.08685
G1 X72.784 Y157.47 E19.10912
G1 X72.275 Y157.037 E19.13134
G1 X71.821 Y156.546 E19.15358
G1 X71.428 Y156.004 E19.17585
G1 X71.103 Y155.419 E19.19811
G1 X70.85 Y154.799 E19.22038
G1 X70.673 Y154.154 E19.24263
G1 X70.574 Y153.493 E19.26486
G1 X70.552 Y152.995 E19.28144
G1 X70.553 Y145.859 E19.51878
G1 X70.593 Y145.191 E19.54104
G1 X70.712 Y144.533 E19.56328
G1 X70.91 Y143.894 E19.58553
G1 X71.181 Y143.282 E19.60779
G1 X71.524 Y142.708 E19.63003
G1 X71.933 Y142.178 E19.6523
G1 X72.495 Y141.62 E19.67864
G1 X76.201 Y138.422 E19.84145
G1 X80.064 Y134.719 E20.01943
G1 X83.74 Y130.769 E20.1989
G1 X85.418 Y128.806 E20.28479
G1 X88.739 Y124.568 E20.46387
G1 X91.782 Y120.199 E20.64096
G1 X94.58 Y115.652 E20.81853
G1 X97.143 Y110.907 E20.9979
G1 X98.372 Y108.386 E21.09118
G1 X98.7 Y107.803 E21.11343
G1 X99.096 Y107.264 E21.13568
G1 X99.553 Y106.775 E21.15794
M204 S5000
M205 X30 Y30
G0 F3600 X99.88 Y107.017
M204 S500
M205 X20 Y20
G1 F1800 X100.38 Y106.61 E21.17938
G1 X100.926 Y106.268 E21.20081
G1 X101.511 Y105.997 E21.22225
G1 X102.125 Y105.799 E21.24371
G1 X102.758 Y105.68 E21.26513
G1 X103.401 Y105.639 E21.28656
G1 X104.07 Y105.682 E21.30886
G1 X106.543 Y106 E21.39179
G1 X111.912 Y106.468 E21.57104
G1 X117.296 Y106.632 E21.75019
G1 X122.646 Y106.491 E21.9282
G1 X128.016 Y106.046 E22.10742
G1 X130.943 Y105.68 E22.20553
G1 X131.586 Y105.64 E22.22695
G1 X132.23 Y105.68 E22.24842
G1 X132.863 Y105.799 E22.26984
G1 X133.477 Y105.995 E22.29128
G1 X134.062 Y106.266 E22.31272
G1 X134.609 Y106.608 E22.33418
G1 X135.11 Y107.014 E22.35562
G1 X135.556 Y107.479 E22.37705
G1 X135.941 Y107.996 E22.39849
G1 X136.26 Y108.557 E22.41996
G1 X136.506 Y109.152 E22.44137
G1 X136.678 Y109.774 E22.46284
G1 X136.77 Y110.412 E22.48428
G1 X136.783 Y111.056 E22.5057
G1 X136.717 Y111.698 E22.52716
G1 X136.571 Y112.326 E22.54861
G1 X136.42 Y112.761 E22.56392
G1 X135.701 Y114.569 E22.62864
G1 X133.884 Y119.69 E22.80937
G1 X132.381 Y124.833 E22.98758
G1 X131.157 Y130.103 E23.16753
G1 X130.683 Y132.649 E23.25366
G1 X129.914 Y137.988 E23.43307
G1 X129.451 Y143.338 E23.61168
G1 X129.288 Y148.931 E23.79778
G1 X129.278 Y154.047 E23.96794
G1 X129.237 Y154.69 E23.98937
G1 X129.116 Y155.324 E24.01084
G1 X128.918 Y155.937 E24.03226
G1 X128.646 Y156.522 E24.05372
G1 X128.304 Y157.068 E24.07515
G1 X127.896 Y157.567 E24.09659
G1 X127.43 Y158.013 E24.11804
G1 X126.912 Y158.397 E24.13949
G1 X126.468 Y158.655 E24.15657
G1 X120.621 Y161.681 E24.37554
G1 X118.712 Y162.777 E24.44875
G1 X118.327 Y162.977 E24.46318
G1 X116.904 Y163.643 E24.51544
G1 X116.103 Y163.94 E24.54385
G1 X115.689 Y164.056 E24.55815
G1 X114.864 Y164.217 E24.58611
G1 X113.719 Y164.345 E24.62443
G1 X112.979 Y164.374 E24.64906
G1 X110.016 Y164.282 E24.74766
G1 X104.569 Y164.316 E24.92883
G1 X100.303 Y164.554 E25.07094
G1 X99.659 Y164.55 E25.09236
G1 X99.02 Y164.466 E25.11379
G1 X98.249 Y164.253 E25.1404
G1 X91.355 Y161.765 E25.38417
G1 X86.21 Y160.28 E25.56228
G1 X80.98 Y159.084 E25.74072
G1 X75.287 Y158.124 E25.93274
G1 X74.66 Y157.977 E25.95416
G1 X74.055 Y157.754 E25.97561
G1 X73.482 Y157.458 E25.99706
G1 X72.95 Y157.094 E26.0185
G1 X72.468 Y156.666 E26.03994
G1 X72.042 Y156.182 E26.06138
G1 X71.68 Y155.649 E26.08281
G1 X71.386 Y155.075 E26.10426
G1 X71.165 Y154.469 E26.12572
G1 X71.021 Y153.841 E26.14715
G1 X70.952 Y152.995 E26.17538
G1 X70.953 Y145.859 E26.41272
G1 X70.993 Y145.216 E26.43415
G1 X71.112 Y144.582 E26.4556
G1 X71.309 Y143.968 E26.47705
G1 X71.581 Y143.384 E26.49848
G1 X71.922 Y142.837 E26.51992
G1 X72.329 Y142.337 E26.54136
G1 X72.756 Y141.923 E26.56114
G1 X76.476 Y138.713 E26.72457
G1 X80.351 Y134.998 E26.90311
G1 X84.032 Y131.043 E27.08281
G1 X85.732 Y129.054 E27.16984
G1 X89.052 Y124.817 E27.34887
G1 X92.118 Y120.415 E27.5273
G1 X94.93 Y115.846 E27.70574
G1 X97.492 Y111.103 E27.88503
G1 X98.731 Y108.561 E27.97909
G1 X99.049 Y108 E28.00054
G1 X99.434 Y107.483 E28.02198
G1 X99.88 Y107.017 E28.04343
M204 S5000
M205 X30 Y30
G1 F2400 E23.04343
;MESH:Chicken_v2_feet.stl
G0 F3600 X109.965 Y111.832
G0 X109.651 Y113.059
G0 X109.727 Y113.085
G0 X109.63 Y113.052
M204 S500
M205 X20 Y20
;TYPE:WALL-INNER
G1 F2400 E28.04343
G1 F1800 X104.651 Y111.77 E28.21443
G1 X109.631 Y113.052 E28.21466
G1 X109.824 Y113.102 E28.22129
G1 X110.068 Y113.24 E28.23062
G1 X109.812 Y113.13 E28.23093
G1 X109.63 Y113.052 E28.23119
M204 S5000
M205 X30 Y30
G0 F3600 X109.727 Y113.085
G0 X113.309 Y114.658
G0 X113.128 Y116.121
G0 X116.19 Y114.831
M204 S500
M205 X20 Y20
G1 F1800 X112.942 Y116.424 E28.35151
G1 X112.942 Y124.374 E28.61593
G1 X112.088 Y124.374 E28.64433
G1 X111.888 Y124.374 E28.65099
G1 X111.888 Y124.174 E28.65529
G1 X111.889 Y118.985 E28.82788
G1 X112.13 Y114.74 E28.9693
G1 X112.148 Y114.419 E28.97999
G1 X112.428 Y114.578 E28.98614
G1 X112.942 Y114.87 E29.00581
G1 X112.938 Y116.105 E29.04688
G1 X112.938 Y116.106 E29.04692
G1 X112.938 Y116.426 E29.05756
G1 X113.226 Y116.285 E29.0637
G1 X116.19 Y114.831 E29.17351
M204 S5000
M205 X30 Y30
G1 F2400 E24.17351
G0 F3600 X117.358 Y114.712
G0 X117.642 Y114.712
G0 X122.059 Y116.424
M204 S500
M205 X20 Y20
G1 F2400 E29.17351
G1 F1800 X122.059 Y116.104 E29.18415
G1 X122.059 Y116.103 E29.18418
G1 X122.057 Y114.876 E29.22499
G1 X122.571 Y114.583 E29.24467
G1 X122.851 Y114.424 E29.25538
G1 X122.869 Y114.745 E29.26153
G1 X123.112 Y118.984 E29.40275
G1 X123.112 Y124.374 E29.58202
G1 X122.258 Y124.374 E29.61042
G1 X122.058 Y124.374 E29.61708
G1 X122.058 Y124.174 E29.62138
G1 X122.059 Y116.425 E29.87912
G1 X121.77 Y116.283 E29.88983
G1 X118.81 Y114.831 E29.99948
G1 X121.77 Y116.282 E30.0543
G1 X121.771 Y116.283 E30.05434
G1 X122.059 Y116.424 E30.05967
M204 S5000
M205 X30 Y30
G0 F3600 X123.216 Y114.378
G0 X125.196 Y113.148
G0 X125.191 Y113.128
M204 S500
M205 X20 Y20
G1 F1800 X124.944 Y113.234 E30.06861
G1 X125.178 Y113.101 E30.06895
G1 X125.366 Y113.053 E30.07536
G1 X125.191 Y113.128 E30.07555
M204 S5000
M205 X30 Y30
G0 F3600 X125.196 Y113.148
G0 X123.216 Y114.378
G0 X121.71 Y115.866
G0 X121.658 Y115.782
M204 S500
M205 X20 Y20
;TYPE:WALL-OUTER
G1 F1800 X121.658 Y115.462 E30.08619
G1 X121.658 Y115.461 E30.08622
G1 X121.657 Y114.643 E30.11343
G1 X125.024 Y112.728 E30.24226
G1 X130.719 Y111.262 E30.43785
G1 X131.185 Y111.142 E30.45386
G1 X130.94 Y111.557 E30.46248
G1 X130.61 Y112.117 E30.4841
G1 X125.5 Y113.431 E30.65959
G1 X123.25 Y114.398 E30.74104
G1 X123.512 Y118.984 E30.89382
G1 X123.512 Y124.774 E31.0864
G1 X121.858 Y124.774 E31.14141
G1 X121.658 Y124.774 E31.14806
G1 X121.658 Y124.574 E31.15237
G1 X121.659 Y116.674 E31.41512
G1 X118.149 Y114.952 E31.54516
G1 X117.665 Y114.715 E31.56308
G1 X118.186 Y114.581 E31.57256
G1 X118.187 Y114.58 E31.57261
G1 X118.855 Y114.407 E31.59556
G1 X121.37 Y115.641 E31.68874
G1 X121.658 Y115.782 E31.69488
M204 S5000
M205 X30 Y30
G0 F3600 X121.658 Y115.582
G1 F2400 E26.69488
