;FLAVOR:Marlin
;TIME:1217
;Filament used: 0.248659m
;Layer height: 0.1
;Generated with Cura_SteamEngine master
M140 S60
M105
M190 S60
M104 S200
M105
M109 S200
M82 ;absolute extrusion mode
; Ender 3 Custom Start G-code
G28 ; Home all axes
G92 E0 ; Reset Extruder
G1 Z2.0 F3000 ; Move Z Axis up little to prevent scratching of Heat Bed
G1 X0.1 Y20 Z0.3 F5000.0 ; Move to start position
G1 X0.1 Y200.0 Z0.3 F1500.0 E15 ; Draw the first line
G1 X0.4 Y200.0 Z0.3 F5000.0 ; Move to side a little
G1 X0.4 Y20 Z0.3 F1500.0 E30 ; Draw the second line
G92 E0 ; Reset Extruder
G1 Z2.0 F3000 ; Move Z Axis up little to prevent scratching of Heat Bed
; End of custom start GCode
G92 E0
G1 F2400 E-5
;LAYER_COUNT:121
;LAYER:0
M107
M204 S5000
M205 X30 Y30
G0 F3600 X109.526 Y111.658 Z0.2
M204 S500
M205 X20 Y20
;TYPE:SKIRT
G1 F2400 E0
G1 F1800 X110.421 Y110.799 E0.04126
G1 X110.964 Y110.333 E0.06506
G1 X111.742 Y109.823 E0.096
G1 X112.569 Y109.363 E0.12747
G1 X113.213 Y109.051 E0.15128
G1 X113.677 Y108.877 E0.16776
G1 X114.46 Y108.619 E0.19518
G1 X115.398 Y108.387 E0.22732
G1 X115.884 Y108.305 E0.24371
G1 X116.922 Y108.216 E0.27836
G1 X117.861 Y108.212 E0.30959
G1 X118.575 Y108.249 E0.33337
G1 X119.012 Y108.311 E0.34805
G1 X119.752 Y108.443 E0.37305
G1 X120.448 Y108.608 E0.39684
G1 X120.854 Y108.744 E0.41108
G1 X121.579 Y109.013 E0.4368
G1 X122.235 Y109.299 E0.46061
G1 X122.574 Y109.482 E0.47342
G1 X123.266 Y109.885 E0.50005
G1 X124.114 Y110.476 E0.53443
G1 X124.579 Y110.859 E0.55447
G1 X125.105 Y111.344 E0.57827
G1 X125.494 Y111.784 E0.5978
G1 X126.248 Y112.72 E0.63777
G1 X126.665 Y113.301 E0.66156
G1 X127.014 Y113.925 E0.68534
G1 X127.185 Y114.307 E0.69926
G1 X127.664 Y115.475 E0.74125
G1 X127.898 Y116.151 E0.76504
G1 X128.026 Y116.685 E0.78331
G1 X128.133 Y117.237 E0.80201
G1 X128.23 Y117.946 E0.82581
G1 X128.25 Y118.479 E0.84355
G1 X128.246 Y119.528 E0.87844
G1 X128.203 Y120.242 E0.90223
G1 X128.082 Y120.945 E0.92595
G1 X127.88 Y121.819 E0.95579
G1 X127.68 Y122.506 E0.97959
G1 X127.547 Y122.852 E0.99192
G1 X127.332 Y123.365 E1.01042
G1 X127.019 Y124.008 E1.0342
G1 X126.724 Y124.485 E1.05286
G1 X126.069 Y125.45 E1.09165
G1 X125.635 Y126.019 E1.11545
G1 X125.21 Y126.469 E1.13604
G1 X124.687 Y126.972 E1.16017
G1 X124.145 Y127.438 E1.18395
G1 X123.585 Y127.822 E1.20653
G1 X122.574 Y128.439 E1.24592
G1 X121.944 Y128.777 E1.2697
G1 X121.171 Y129.078 E1.29729
G1 X120.299 Y129.354 E1.32771
G1 X119.606 Y129.531 E1.3515
G1 X119.035 Y129.617 E1.37071
G1 X118.147 Y129.71 E1.40041
G1 X117.432 Y129.745 E1.42421
G1 X117.071 Y129.732 E1.43623
G1 X116.4 Y129.689 E1.45859
G1 X115.351 Y129.534 E1.49386
G1 X114.633 Y129.366 E1.51839
G1 X113.947 Y129.164 E1.54217
G1 X113.477 Y128.976 E1.55901
G1 X112.563 Y128.567 E1.59231
G1 X111.927 Y128.239 E1.61611
G1 X111.206 Y127.744 E1.6452
G1 X110.291 Y127.02 E1.68401
G1 X109.756 Y126.545 E1.70781
G1 X109.395 Y126.157 E1.72543
G1 X108.997 Y125.691 E1.74582
G1 X108.564 Y125.122 E1.7696
G1 X108.351 Y124.785 E1.78286
G1 X107.933 Y124.076 E1.81023
G1 X107.605 Y123.441 E1.834
G1 X107.376 Y122.855 E1.85493
G1 X107.032 Y121.826 E1.89102
G1 X106.844 Y121.136 E1.9148
G1 X106.726 Y120.346 E1.94137
G1 X106.653 Y119.498 E1.96968
G1 X106.631 Y118.783 E1.99347
G1 X106.686 Y118.094 E2.01646
G1 X106.838 Y116.966 E2.05431
G1 X106.973 Y116.264 E2.07809
G1 X107.277 Y115.351 E2.1101
G1 X107.715 Y114.304 E2.14784
G1 X108.027 Y113.661 E2.17162
G1 X108.325 Y113.178 E2.19049
G1 X108.664 Y112.679 E2.21056
G1 X109.098 Y112.11 E2.23436
G1 X109.526 Y111.658 E2.25506
M204 S5000
M205 X30 Y30
G0 F3600 X109.803 Y111.946
M204 S500
M205 X20 Y20
G1 F1800 X110.698 Y111.087 E2.29632
G1 X111.225 Y110.637 E2.31937
G1 X111.936 Y110.173 E2.34761
G1 X112.763 Y109.713 E2.37908
G1 X113.387 Y109.411 E2.40214
G1 X113.802 Y109.257 E2.41686
G1 X114.585 Y108.999 E2.44428
G1 X115.465 Y108.782 E2.47443
G1 X115.951 Y108.7 E2.49082
G1 X116.923 Y108.616 E2.52327
G1 X117.862 Y108.612 E2.5545
G1 X118.554 Y108.649 E2.57755
G1 X118.942 Y108.705 E2.59059
G1 X119.682 Y108.837 E2.61559
G1 X120.355 Y108.998 E2.63861
G1 X120.715 Y109.119 E2.65124
G1 X121.44 Y109.388 E2.67696
G1 X122.372 Y109.828 E2.71124
G1 X123.064 Y110.231 E2.73787
G1 X123.86 Y110.785 E2.77013
G1 X124.325 Y111.168 E2.79017
G1 X124.833 Y111.638 E2.81318
G1 X125.183 Y112.035 E2.83079
G1 X125.937 Y112.971 E2.87076
G1 X126.339 Y113.535 E2.8938
G1 X126.674 Y114.141 E2.91683
G1 X126.815 Y114.458 E2.92837
G1 X127.294 Y115.626 E2.97036
G1 X127.52 Y116.281 E2.9934
G1 X127.633 Y116.761 E3.0098
G1 X127.74 Y117.313 E3.02851
G1 X127.833 Y118 E3.05156
G1 X127.85 Y118.478 E3.06747
G1 X127.846 Y119.527 E3.10236
G1 X127.803 Y120.218 E3.12539
G1 X127.692 Y120.855 E3.1469
G1 X127.49 Y121.729 E3.17673
G1 X127.178 Y122.697 E3.21056
G1 X126.963 Y123.21 E3.22906
G1 X126.659 Y123.832 E3.25208
G1 X126.393 Y124.261 E3.26887
G1 X125.738 Y125.226 E3.30766
G1 X125.317 Y125.775 E3.33068
G1 X124.933 Y126.181 E3.34926
G1 X124.41 Y126.684 E3.3734
G1 X123.884 Y127.134 E3.39642
G1 X123.377 Y127.481 E3.41685
G1 X122.366 Y128.098 E3.45625
G1 X121.755 Y128.424 E3.47928
G1 X121.051 Y128.696 E3.50438
G1 X120.179 Y128.972 E3.5348
G1 X119.507 Y129.143 E3.55787
G1 X118.993 Y129.219 E3.57515
G1 X118.105 Y129.312 E3.60485
G1 X117.096 Y129.333 E3.63841
G1 X116.425 Y129.29 E3.66078
G1 X115.442 Y129.144 E3.69383
G1 X114.724 Y128.976 E3.71835
G1 X114.06 Y128.78 E3.74138
G1 X113.64 Y128.611 E3.75644
G1 X112.726 Y128.202 E3.78974
G1 X112.112 Y127.883 E3.81276
G1 X111.454 Y127.43 E3.83933
G1 X110.539 Y126.706 E3.87814
G1 X110.022 Y126.246 E3.90115
G1 X109.7 Y125.898 E3.91692
G1 X109.302 Y125.432 E3.9373
G1 X108.883 Y124.88 E3.96035
G1 X108.695 Y124.582 E3.97207
G1 X108.277 Y123.873 E3.99945
G1 X107.961 Y123.257 E4.02247
G1 X107.756 Y122.728 E4.04134
G1 X107.412 Y121.699 E4.07743
G1 X107.23 Y121.031 E4.10046
G1 X107.124 Y120.312 E4.12463
G1 X107.051 Y119.464 E4.15294
G1 X107.032 Y118.771 E4.176
G1 X107.083 Y118.148 E4.19679
G1 X107.235 Y117.02 E4.23464
G1 X107.367 Y116.34 E4.25768
G1 X107.646 Y115.505 E4.28696
G1 X108.084 Y114.458 E4.32471
G1 X108.388 Y113.836 E4.34774
G1 X108.656 Y113.402 E4.3647
G1 X108.995 Y112.903 E4.38477
G1 X109.417 Y112.354 E4.4078
G1 X109.803 Y111.946 E4.42648
M204 S5000
M205 X30 Y30
G0 F3600 X110.08 Y112.235
M204 S500
M205 X20 Y20
G1 F1800 X110.975 Y111.376 E4.46774
G1 X111.485 Y110.942 E4.49001
G1 X112.131 Y110.522 E4.51564
G1 X112.958 Y110.062 E4.54712
G1 X113.561 Y109.772 E4.56937
G1 X113.927 Y109.637 E4.58235
G1 X114.71 Y109.379 E4.60977
G1 X115.531 Y109.176 E4.63789
G1 X116.017 Y109.094 E4.65429
G1 X116.925 Y109.016 E4.6846
G1 X117.864 Y109.012 E4.71583
G1 X118.532 Y109.049 E4.73808
G1 X118.871 Y109.099 E4.74948
G1 X119.611 Y109.231 E4.77448
G1 X120.576 Y109.494 E4.80775
G1 X121.301 Y109.763 E4.83347
G1 X122.171 Y110.174 E4.86547
G1 X122.863 Y110.577 E4.8921
G1 X123.605 Y111.093 E4.92216
G1 X124.07 Y111.476 E4.9422
G1 X124.56 Y111.932 E4.96446
G1 X124.871 Y112.286 E4.98014
G1 X125.625 Y113.222 E5.02011
G1 X126.013 Y113.767 E5.04236
G1 X126.445 Y114.61 E5.07387
G1 X126.924 Y115.778 E5.11586
G1 X127.141 Y116.411 E5.13811
G1 X127.241 Y116.837 E5.15267
G1 X127.348 Y117.389 E5.17137
G1 X127.436 Y118.053 E5.19365
G1 X127.45 Y118.476 E5.20772
G1 X127.446 Y119.525 E5.24261
G1 X127.403 Y120.193 E5.26488
G1 X127.302 Y120.765 E5.2842
G1 X127.1 Y121.639 E5.31403
G1 X126.809 Y122.543 E5.34562
G1 X126.594 Y123.056 E5.36412
G1 X126.299 Y123.656 E5.38636
G1 X126.062 Y124.036 E5.40125
G1 X125.407 Y125.001 E5.44004
G1 X124.999 Y125.531 E5.46229
G1 X124.656 Y125.892 E5.47885
G1 X124.133 Y126.395 E5.50299
G1 X123.624 Y126.829 E5.52523
G1 X123.168 Y127.139 E5.54357
G1 X122.157 Y127.756 E5.58297
G1 X121.566 Y128.07 E5.60523
G1 X120.93 Y128.315 E5.62789
G1 X120.058 Y128.591 E5.65832
G1 X119.409 Y128.754 E5.68057
G1 X118.951 Y128.822 E5.69597
G1 X118.063 Y128.915 E5.72567
G1 X117.122 Y128.934 E5.75697
G1 X116.451 Y128.891 E5.77934
G1 X115.533 Y128.755 E5.8102
G1 X114.815 Y128.587 E5.83473
G1 X114.174 Y128.396 E5.85697
G1 X113.804 Y128.246 E5.87025
G1 X112.89 Y127.837 E5.90356
G1 X112.296 Y127.527 E5.92584
G1 X111.702 Y127.117 E5.94985
G1 X110.787 Y126.393 E5.98866
G1 X110.288 Y125.947 E6.01092
G1 X110.004 Y125.638 E6.02487
G1 X109.606 Y125.172 E6.04526
G1 X109.04 Y124.379 E6.07766
G1 X108.622 Y123.67 E6.10504
G1 X108.317 Y123.074 E6.1273
G1 X108.135 Y122.602 E6.14413
G1 X107.791 Y121.573 E6.18022
G1 X107.617 Y120.926 E6.2025
G1 X107.523 Y120.277 E6.22431
G1 X107.45 Y119.429 E6.25262
G1 X107.432 Y118.76 E6.27488
G1 X107.479 Y118.201 E6.29354
G1 X107.631 Y117.073 E6.33139
G1 X107.76 Y116.417 E6.35363
G1 X108.015 Y115.66 E6.3802
G1 X108.453 Y114.613 E6.41795
G1 X108.747 Y114.012 E6.4402
G1 X108.987 Y113.627 E6.45529
G1 X109.326 Y113.128 E6.47535
G1 X109.734 Y112.598 E6.4976
G1 X110.08 Y112.235 E6.51428
M204 S5000
M205 X30 Y30
G0 F3600 X110.357 Y112.523
M204 S500
M205 X20 Y20
G1 F1800 X111.252 Y111.664 E6.55554
G1 X111.744 Y111.248 E6.57697
G1 X112.325 Y110.872 E6.59999
G1 X113.152 Y110.412 E6.63146
G1 X113.734 Y110.134 E6.65291
G1 X114.053 Y110.017 E6.66421
G1 X114.836 Y109.759 E6.69163
G1 X115.598 Y109.57 E6.71775
G1 X116.084 Y109.488 E6.73414
G1 X116.927 Y109.416 E6.76228
G1 X117.866 Y109.412 E6.79351
G1 X118.801 Y109.493 E6.82473
G1 X119.541 Y109.625 E6.84973
G1 X120.437 Y109.869 E6.88061
G1 X121.162 Y110.138 E6.90633
G1 X121.97 Y110.519 E6.93605
G1 X122.662 Y110.922 E6.96268
G1 X123.351 Y111.402 E6.99061
G1 X123.816 Y111.785 E7.01065
G1 X124.287 Y112.225 E7.03208
G1 X124.56 Y112.537 E7.04587
G1 X125.314 Y113.473 E7.08585
G1 X125.686 Y113.999 E7.10728
G1 X126.075 Y114.762 E7.13576
G1 X126.554 Y115.93 E7.17775
G1 X126.761 Y116.54 E7.19917
G1 X126.848 Y116.913 E7.21191
G1 X126.955 Y117.465 E7.23061
G1 X127.038 Y118.105 E7.25208
G1 X127.05 Y118.475 E7.26439
G1 X127.046 Y119.524 E7.29928
G1 X127.004 Y120.167 E7.32071
G1 X126.912 Y120.675 E7.33789
G1 X126.71 Y121.549 E7.36772
G1 X126.44 Y122.388 E7.39704
G1 X126.225 Y122.901 E7.41554
G1 X125.939 Y123.479 E7.43698
G1 X125.732 Y123.811 E7.45
G1 X125.077 Y124.776 E7.48879
G1 X124.682 Y125.286 E7.51024
G1 X124.379 Y125.604 E7.52485
G1 X123.856 Y126.107 E7.54899
G1 X123.364 Y126.524 E7.57044
G1 X122.96 Y126.798 E7.58667
G1 X121.949 Y127.415 E7.62607
G1 X121.379 Y127.716 E7.64751
G1 X120.809 Y127.934 E7.66781
G1 X119.937 Y128.21 E7.69823
G1 X119.312 Y128.366 E7.71965
G1 X118.91 Y128.424 E7.73316
G1 X118.022 Y128.517 E7.76286
G1 X117.147 Y128.534 E7.79196
G1 X116.476 Y128.491 E7.81433
G1 X115.624 Y128.365 E7.84297
G1 X114.906 Y128.197 E7.8675
G1 X114.289 Y128.012 E7.88892
G1 X113.967 Y127.88 E7.9005
G1 X113.053 Y127.471 E7.9338
G1 X112.482 Y127.172 E7.95524
G1 X111.95 Y126.803 E7.97678
G1 X111.035 Y126.079 E8.01558
G1 X110.556 Y125.648 E8.03701
G1 X110.308 Y125.378 E8.04921
G1 X109.91 Y124.912 E8.06959
G1 X109.385 Y124.176 E8.09966
G1 X108.967 Y123.467 E8.12703
G1 X108.674 Y122.892 E8.1485
G1 X108.514 Y122.475 E8.16335
G1 X108.17 Y121.446 E8.19944
G1 X108.004 Y120.823 E8.22088
G1 X107.921 Y120.243 E8.24037
G1 X107.848 Y119.395 E8.26868
G1 X107.833 Y118.751 E8.29011
G1 X107.876 Y118.255 E8.30667
G1 X108.028 Y117.127 E8.34452
G1 X108.153 Y116.494 E8.36598
G1 X108.384 Y115.814 E8.38987
G1 X108.822 Y114.767 E8.42762
G1 X109.107 Y114.189 E8.44905
G1 X109.318 Y113.852 E8.46227
G1 X109.657 Y113.353 E8.48234
G1 X110.051 Y112.843 E8.50377
G1 X110.357 Y112.523 E8.5185
M204 S5000
M205 X30 Y30
G1 F2400 E3.5185
;MESH:Cup.stl
G0 F3600 X113.674 Y115.573
G0 X114.582 Y116.481
G0 X116.465 Y115.899
G0 X117.456 Y115.796
G0 X118.413 Y115.941
G0 X119.247 Y116.342
G0 X119.644 Y116.656
G0 X120.15 Y117.178
G0 X119.715 Y117.647
G0 X118.619 Y117.824
G0 X117.89 Y121.177
G0 X117.792 Y121.194
M204 S500
M205 X20 Y20
;TYPE:WALL-INNER
G1 F2400 E8.5185
G1 F1800 X117.523 Y121.079 E8.52823
G1 X117.522 Y121.078 E8.52828
G1 X116.779 Y120.758 E8.55518
G1 X116.559 Y120.682 E8.56293
G1 X116.419 Y120.594 E8.56843
G1 X116.228 Y120.457 E8.57624
G1 X116.167 Y120.367 E8.57986
G1 X115.927 Y119.88 E8.59792
G1 X115.797 Y119.645 E8.60685
G1 X115.757 Y119.556 E8.6101
G1 X115.704 Y119.363 E8.61675
G1 X115.691 Y119.283 E8.61945
G1 X115.681 Y119.039 E8.62757
G1 X115.695 Y118.798 E8.6356
G1 X115.748 Y118.397 E8.64905
G1 X115.776 Y118.327 E8.65156
G1 X115.861 Y118.174 E8.65738
G1 X115.996 Y117.987 E8.66505
G1 X116.126 Y117.828 E8.67188
G1 X116.245 Y117.704 E8.6776
G1 X116.313 Y117.647 E8.68055
G1 X116.503 Y117.517 E8.68821
G1 X116.755 Y117.322 E8.69881
G1 X116.928 Y117.219 E8.7055
G1 X117.028 Y117.185 E8.70902
G1 X117.314 Y117.181 E8.71853
G1 X117.548 Y117.194 E8.72632
G1 X117.89 Y117.23 E8.73776
G1 X118.066 Y117.269 E8.74376
G1 X118.642 Y117.45 E8.76384
G1 X118.72 Y117.504 E8.76699
G1 X119.07 Y117.807 E8.78239
G1 X119.337 Y118.336 E8.8021
G1 X119.376 Y118.751 E8.81596
G1 X119.493 Y119.589 E8.84411
G1 X120.636 Y119.481 E8.88229
G1 X120.594 Y118.662 E8.90957
G1 X120.536 Y118.274 E8.92262
G1 X120.431 Y117.979 E8.93303
G1 X120.443 Y117.846 E8.93747
G1 X120.279 Y117.508 E8.94997
G1 X120.009 Y117.338 E8.96058
G1 X119.979 Y117.319 E8.96176
G1 X120.024 Y117.271
G1 X120.111 Y117.177 E8.96446
G1 X119.617 Y116.684 E8.98767
G1 X119.429 Y116.528 E8.99579
G1 X119.224 Y116.374 E9.00432
G1 X118.962 Y116.214 E9.01453
G1 X118.63 Y116.062 E9.02668
G1 X118.404 Y115.979 E9.03469
G1 X118.093 Y115.9 E9.04536
G1 X117.789 Y115.856 E9.05557
G1 X117.457 Y115.835 E9.06664
G1 X117.149 Y115.852 E9.0769
G1 X116.865 Y115.896 E9.08646
G1 X116.485 Y115.933 E9.09916
G1 X116.433 Y116.006 E9.10214
G1 X116.256 Y116.066 E9.10835
G1 X115.943 Y116.216 E9.1199
G1 X115.71 Y116.356 E9.12894
G1 X115.545 Y116.47 E9.13561
G1 X115.312 Y116.663 E9.14567
G1 X115.153 Y116.821 E9.15313
G1 X114.995 Y116.996 E9.16097
G1 X114.869 Y117.167 E9.16803
G1 X114.754 Y117.339 E9.17491
G1 X114.634 Y117.558 E9.18322
G1 X114.521 Y117.793 E9.19189
G1 X114.433 Y118.041 E9.20065
G1 X114.358 Y118.334 E9.21071
G1 X114.3 Y118.744 E9.22448
G1 X114.296 Y119.068 E9.23525
G1 X114.322 Y119.388 E9.24593
G1 X114.399 Y119.761 E9.2586
G1 X114.447 Y119.941 E9.2648
G1 X114.575 Y120.261 E9.27626
G1 X114.738 Y120.566 E9.28776
G1 X114.848 Y120.737 E9.29452
G1 X115.09 Y121.049 E9.30766
G1 X115.414 Y121.358 E9.32255
G1 X115.633 Y121.526 E9.33173
G1 X115.955 Y121.722 E9.34427
G1 X115.975 Y121.75 E9.34541
G1 X116.043 Y121.776 E9.34783
G1 X116.127 Y121.827 E9.3511
G1 X116.158 Y121.82 E9.35216
G1 X116.889 Y122.097 E9.37816
G1 X117.585 Y121.401 E9.4109
G1 X117.792 Y121.194 E9.4166
M204 S5000
M205 X30 Y30
G0 F3600 X117.89 Y121.177
G0 X117.063 Y122.64
G0 X117.052 Y122.739
M204 S500
M205 X20 Y20
G1 F1800 X116.671 Y122.678 E9.42943
G1 X116.214 Y122.555 E9.44517
G1 X115.843 Y122.404 E9.45849
G1 X115.484 Y122.22 E9.47191
G1 X115.177 Y122.018 E9.48414
G1 X114.897 Y121.794 E9.49606
G1 X114.67 Y121.575 E9.50655
G1 X114.413 Y121.28 E9.51957
G1 X114.342 Y121.189 E9.5234
G1 X114.195 Y120.969 E9.5322
G1 X114.099 Y120.808 E9.53844
G1 X113.923 Y120.457 E9.5515
G1 X113.802 Y120.145 E9.56263
G1 X113.707 Y119.802 E9.57447
G1 X113.635 Y119.371 E9.589
G1 X113.618 Y119.099 E9.59807
G1 X113.618 Y118.866 E9.60581
G1 X113.637 Y118.544 E9.61654
G1 X113.719 Y118.099 E9.63159
G1 X113.832 Y117.713 E9.64497
G1 X113.96 Y117.393 E9.65643
G1 X114.106 Y117.111 E9.667
G1 X114.367 Y116.713 E9.68283
G1 X114.566 Y116.469 E9.6933
G1 X114.902 Y116.134 E9.70908
G1 X115.21 Y115.888 E9.72219
G1 X115.461 Y115.728 E9.73209
G1 X115.663 Y115.615 E9.73979
G1 X116 Y115.461 E9.75211
G1 X116.344 Y115.339 E9.76425
G1 X116.61 Y115.27 E9.77339
G1 X117.009 Y115.203 E9.78685
G1 X117.442 Y115.177 E9.80128
G1 X117.89 Y115.204 E9.8162
G1 X118.172 Y115.245 E9.82568
G1 X118.387 Y115.292 E9.833
G1 X118.659 Y115.37 E9.84241
G1 X119.109 Y115.55 E9.85853
G1 X119.315 Y115.652 E9.86618
G1 X119.722 Y115.911 E9.88222
G1 X119.99 Y116.124 E9.89361
G1 X120.323 Y116.448 E9.90906
G1 X120.542 Y116.718 E9.92062
G1 X120.765 Y117.052 E9.93398
G1 X120.938 Y117.385 E9.94646
G1 X121.095 Y117.778 E9.96054
G1 X121.197 Y118.149 E9.97334
G1 X121.267 Y118.55 E9.98688
G1 X121.287 Y118.889 E9.99817
G1 X121.268 Y119.374 E10.01431
G1 X121.181 Y119.858 E10.03067
G1 X121.09 Y120.173 E10.04157
G1 X120.943 Y120.538 E10.05466
