;FLAVOR:Marlin
;TIME:3317
;Filament used: 1.03896m
;Layer height: 0.1
;Generated with Cura_SteamEngine master
M140 S60
M105
M190 S60
M104 S200
M105
M109 S200
M82 ;absolute extrusion mode
; Ender 3 Custom Start G-code
G28 ; Home all axes
G92 E0 ; Reset Extruder
G1 Z2.0 F3000 ; Move Z Axis up little to prevent scratching of Heat Bed
G1 X0.1 Y20 Z0.3 F5000.0 ; Move to start position
G1 X0.1 Y200.0 Z0.3 F1500.0 E15 ; Draw the first line
G1 X0.4 Y200.0 Z0.3 F5000.0 ; Move to side a little
G1 X0.4 Y20 Z0.3 F1500.0 E30 ; Draw the second line
G92 E0 ; Reset Extruder
G1 Z2.0 F3000 ; Move Z Axis up little to prevent scratching of Heat Bed
; End of custom start GCode
G92 E0
G1 F2400 E-5
;LAYER_COUNT:317
;LAYER:0
M107
M204 S5000
M205 X30 Y30
G0 F3600 X104.185 Y103.705 Z0.2
M204 S500
M205 X20 Y20
;TYPE:SKIRT
G1 F2400 E0
G1 F1800 X104.663 Y103.303 E0.02077
G1 X105.543 Y102.635 E0.05752
G1 X106.136 Y102.235 E0.08131
G1 X106.716 Y101.929 E0.10312
G1 X107.779 Y101.435 E0.14211
G1 X108.443 Y101.17 E0.16589
G1 X109.414 Y100.928 E0.19917
G1 X110.953 Y100.669 E0.25108
G1 X111.945 Y100.58 E0.2842
G1 X122.583 Y100.463 E0.63805
G1 X123.218 Y100.488 E0.65918
G1 X124.346 Y100.588 E0.69685
G1 X125.054 Y100.691 E0.72064
G1 X125.682 Y100.852 E0.74221
G1 X126.704 Y101.17 E0.77781
G1 X127.374 Y101.42 E0.80159
G1 X127.904 Y101.683 E0.82127
G1 X128.868 Y102.217 E0.85792
G1 X129.474 Y102.598 E0.88173
G1 X129.948 Y102.97 E0.90177
G1 X130.78 Y103.688 E0.93832
G1 X131.295 Y104.185 E0.96213
G1 X131.697 Y104.663 E0.9829
G1 X132.365 Y105.543 E1.01965
G1 X132.765 Y106.136 E1.04344
G1 X133.176 Y106.954 E1.07389
G1 X133.715 Y108.249 E1.12054
G1 X133.952 Y108.923 E1.1443
G1 X134.122 Y109.674 E1.16991
G1 X134.336 Y110.981 E1.21396
G1 X134.42 Y111.945 E1.24615
G1 X134.537 Y122.582 E1.59996
G1 X134.512 Y123.217 E1.62109
G1 X134.416 Y124.301 E1.65729
G1 X134.313 Y125.008 E1.68105
G1 X134.168 Y125.587 E1.70091
G1 X133.846 Y126.653 E1.73794
G1 X133.601 Y127.325 E1.76173
G1 X133.32 Y127.899 E1.78299
G1 X132.787 Y128.863 E1.81963
G1 X132.406 Y129.468 E1.84341
G1 X132.031 Y129.948 E1.86367
G1 X131.312 Y130.781 E1.90026
G1 X130.815 Y131.295 E1.92405
G1 X130.337 Y131.697 E1.94482
G1 X129.457 Y132.365 E1.98156
G1 X128.864 Y132.765 E2.00536
G1 X128.284 Y133.071 E2.02717
G1 X127.221 Y133.565 E2.06615
G1 X126.557 Y133.83 E2.08993
G1 X125.586 Y134.072 E2.12322
G1 X124.047 Y134.331 E2.17512
G1 X123.055 Y134.42 E2.20825
G1 X112.417 Y134.537 E2.56209
G1 X111.782 Y134.512 E2.58323
G1 X110.699 Y134.416 E2.61939
G1 X109.991 Y134.313 E2.64319
G1 X109.412 Y134.167 E2.66305
G1 X108.347 Y133.845 E2.70005
G1 X107.675 Y133.6 E2.72384
G1 X107.1 Y133.319 E2.74513
G1 X106.135 Y132.785 E2.78181
G1 X105.53 Y132.404 E2.80559
G1 X105.055 Y132.032 E2.82566
G1 X104.221 Y131.313 E2.86228
G1 X103.706 Y130.817 E2.88606
G1 X103.3 Y130.332 E2.9071
G1 X102.633 Y129.452 E2.94383
G1 X102.233 Y128.859 E2.96762
G1 X101.93 Y128.285 E2.98921
G1 X101.436 Y127.223 E3.02816
G1 X101.171 Y126.559 E3.05194
G1 X100.928 Y125.586 E3.0853
G1 X100.669 Y124.047 E3.1372
G1 X100.58 Y123.055 E3.17033
G1 X100.463 Y112.418 E3.52414
G1 X100.488 Y111.784 E3.54524
G1 X100.584 Y110.699 E3.58147
G1 X100.687 Y109.991 E3.60527
G1 X100.833 Y109.411 E3.62516
G1 X101.155 Y108.346 E3.66217
G1 X101.4 Y107.674 E3.68596
G1 X101.681 Y107.099 E3.70724
G1 X102.215 Y106.134 E3.74393
G1 X102.596 Y105.529 E3.76771
G1 X102.97 Y105.052 E3.78787
G1 X103.688 Y104.22 E3.82442
G1 X104.185 Y103.705 E3.84822
M204 S5000
M205 X30 Y30
G0 F3600 X104.473 Y103.984
M204 S500
M205 X20 Y20
G1 F1800 X104.905 Y103.622 E3.86697
G1 X105.785 Y102.954 E3.90371
G1 X106.36 Y102.568 E3.92675
G1 X106.884 Y102.292 E3.94645
G1 X107.947 Y101.798 E3.98543
G1 X108.591 Y101.543 E4.00847
G1 X109.48 Y101.322 E4.03894
G1 X111.019 Y101.063 E4.09085
G1 X111.949 Y100.98 E4.1219
G1 X122.587 Y100.863 E4.47574
G1 X123.183 Y100.886 E4.49558
G1 X124.311 Y100.986 E4.53325
G1 X124.996 Y101.087 E4.55628
G1 X125.564 Y101.234 E4.57579
G1 X126.586 Y101.552 E4.61139
G1 X127.234 Y101.796 E4.63442
G1 X127.71 Y102.032 E4.65209
G1 X128.674 Y102.566 E4.68874
G1 X129.26 Y102.936 E4.71179
G1 X129.687 Y103.273 E4.72989
G1 X130.519 Y103.991 E4.76644
G1 X131.016 Y104.473 E4.78947
G1 X131.378 Y104.905 E4.80821
G1 X132.046 Y105.785 E4.84496
G1 X132.432 Y106.36 E4.86799
G1 X132.806 Y107.107 E4.89578
G1 X133.345 Y108.402 E4.94243
G1 X133.574 Y109.056 E4.96548
G1 X133.727 Y109.739 E4.98876
G1 X133.941 Y111.046 E5.03281
G1 X134.02 Y111.949 E5.06296
G1 X134.137 Y122.586 E5.41677
G1 X134.114 Y123.181 E5.43657
G1 X134.018 Y124.265 E5.47277
G1 X133.917 Y124.95 E5.4958
G1 X133.785 Y125.471 E5.51367
G1 X133.463 Y126.537 E5.55071
G1 X133.225 Y127.187 E5.57373
G1 X132.97 Y127.705 E5.59294
G1 X132.437 Y128.669 E5.62957
G1 X132.067 Y129.255 E5.65262
G1 X131.728 Y129.686 E5.67086
G1 X131.009 Y130.519 E5.70746
G1 X130.527 Y131.017 E5.73051
G1 X130.095 Y131.378 E5.74924
G1 X129.215 Y132.046 E5.78598
G1 X128.64 Y132.432 E5.80902
G1 X128.116 Y132.708 E5.82871
G1 X127.053 Y133.202 E5.8677
G1 X126.409 Y133.457 E5.89074
G1 X125.52 Y133.678 E5.92121
G1 X123.981 Y133.937 E5.97311
G1 X123.051 Y134.02 E6.00417
G1 X112.413 Y134.137 E6.35801
G1 X111.817 Y134.114 E6.37785
G1 X110.734 Y134.018 E6.41401
G1 X110.049 Y133.917 E6.43704
G1 X109.528 Y133.784 E6.45493
G1 X108.463 Y133.462 E6.49193
G1 X107.812 Y133.224 E6.51498
G1 X107.294 Y132.969 E6.53419
G1 X106.329 Y132.435 E6.57087
G1 X105.743 Y132.065 E6.59392
G1 X105.316 Y131.729 E6.61199
G1 X104.482 Y131.01 E6.64862
G1 X103.985 Y130.529 E6.67162
G1 X103.618 Y130.09 E6.69065
G1 X102.951 Y129.21 E6.72738
G1 X102.566 Y128.635 E6.75039
G1 X102.293 Y128.117 E6.76987
G1 X101.799 Y127.055 E6.80883
G1 X101.543 Y126.411 E6.83188
G1 X101.322 Y125.52 E6.86241
G1 X101.063 Y123.981 E6.91432
G1 X100.98 Y123.051 E6.94537
G1 X100.863 Y112.414 E7.29918
G1 X100.886 Y111.819 E7.31898
G1 X100.982 Y110.734 E7.35521
G1 X101.083 Y110.049 E7.37824
G1 X101.216 Y109.527 E7.39616
G1 X101.538 Y108.462 E7.43316
G1 X101.776 Y107.811 E7.45622
G1 X102.031 Y107.293 E7.47542
G1 X102.565 Y106.328 E7.5121
G1 X102.935 Y105.742 E7.53515
G1 X103.273 Y105.313 E7.55332
G1 X103.991 Y104.481 E7.58987
G1 X104.473 Y103.984 E7.6129
M204 S5000
M205 X30 Y30
G0 F3600 X104.76 Y104.263
M204 S500
M205 X20 Y20
G1 F1800 X105.147 Y103.941 E7.62964
G1 X106.027 Y103.273 E7.66639
G1 X106.583 Y102.901 E7.68864
G1 X107.053 Y102.655 E7.70628
G1 X108.116 Y102.161 E7.74527
G1 X108.738 Y101.915 E7.76752
G1 X109.547 Y101.717 E7.79522
G1 X111.086 Y101.458 E7.84713
G1 X111.953 Y101.38 E7.87608
G1 X122.591 Y101.263 E8.22992
G1 X123.148 Y101.285 E8.24846
G1 X124.276 Y101.385 E8.28613
G1 X124.937 Y101.484 E8.30836
G1 X125.445 Y101.616 E8.32582
G1 X126.467 Y101.934 E8.36141
G1 X127.093 Y102.17 E8.38367
G1 X127.517 Y102.382 E8.39943
G1 X128.481 Y102.916 E8.43609
G1 X129.045 Y103.275 E8.45832
G1 X129.426 Y103.575 E8.47445
G1 X130.258 Y104.293 E8.511
G1 X130.737 Y104.76 E8.53325
G1 X131.059 Y105.147 E8.55
G1 X131.727 Y106.027 E8.58674
G1 X132.099 Y106.583 E8.60899
G1 X132.437 Y107.261 E8.63419
G1 X132.976 Y108.556 E8.68085
G1 X133.196 Y109.188 E8.7031
G1 X133.332 Y109.803 E8.72405
G1 X133.546 Y111.11 E8.7681
G1 X133.62 Y111.953 E8.79625
G1 X133.737 Y122.59 E9.15006
G1 X133.715 Y123.146 E9.16856
G1 X133.619 Y124.23 E9.20476
G1 X133.52 Y124.892 E9.22702
G1 X133.402 Y125.355 E9.24291
G1 X133.08 Y126.421 E9.27995
G1 X132.848 Y127.049 E9.30222
G1 X132.62 Y127.512 E9.31938
G1 X132.087 Y128.476 E9.35602
G1 X131.729 Y129.041 E9.37827
G1 X131.425 Y129.425 E9.39456
G1 X130.706 Y130.258 E9.43116
G1 X130.24 Y130.738 E9.45341
G1 X129.853 Y131.059 E9.47013
G1 X128.973 Y131.727 E9.50688
G1 X128.417 Y132.099 E9.52913
G1 X127.947 Y132.345 E9.54677
G1 X126.884 Y132.839 E9.58576
G1 X126.262 Y133.085 E9.60801
G1 X125.453 Y133.283 E9.63571
G1 X123.914 Y133.542 E9.68761
G1 X123.047 Y133.62 E9.71657
G1 X112.409 Y133.737 E10.07041
G1 X111.853 Y133.715 E10.08892
G1 X110.77 Y133.619 E10.12508
G1 X110.108 Y133.52 E10.14734
G1 X109.643 Y133.401 E10.16331
G1 X108.578 Y133.079 E10.20031
G1 X107.951 Y132.848 E10.22254
G1 X107.488 Y132.619 E10.23972
G1 X106.523 Y132.085 E10.2764
G1 X105.958 Y131.727 E10.29865
G1 X105.577 Y131.426 E10.3148
G1 X104.743 Y130.707 E10.35142
G1 X104.264 Y130.241 E10.37365
G1 X103.937 Y129.849 E10.39063
G1 X103.27 Y128.969 E10.42735
G1 X102.899 Y128.412 E10.44961
G1 X102.655 Y127.948 E10.46705
G1 X102.161 Y126.886 E10.506
G1 X101.916 Y126.263 E10.52827
G1 X101.717 Y125.453 E10.55601
G1 X101.458 Y123.914 E10.60792
G1 X101.38 Y123.047 E10.63687
G1 X101.263 Y112.41 E10.99068
G1 X101.285 Y111.854 E11.00919
G1 X101.381 Y110.769 E11.04542
G1 X101.479 Y110.108 E11.06764
G1 X101.599 Y109.642 E11.08365
G1 X101.921 Y108.577 E11.12065
G1 X102.152 Y107.95 E11.14288
G1 X102.381 Y107.487 E11.16006
G1 X102.915 Y106.522 E11.19674
G1 X103.273 Y105.957 E11.21899
G1 X103.575 Y105.574 E11.23521
G1 X104.293 Y104.742 E11.27176
G1 X104.76 Y104.263 E11.29401
M204 S5000
M205 X30 Y30
G0 F3600 X105.047 Y104.543
M204 S500
M205 X20 Y20
G1 F1800 X105.389 Y104.259 E11.3088
G1 X106.269 Y103.591 E11.34554
G1 X106.806 Y103.234 E11.36699
G1 X107.222 Y103.017 E11.3826
G1 X108.285 Y102.523 E11.42158
G1 X108.885 Y102.288 E11.44302
G1 X109.613 Y102.111 E11.46793
G1 X111.152 Y101.852 E11.51984
G1 X111.958 Y101.78 E11.54676
G1 X122.596 Y101.663 E11.9006
G1 X123.112 Y101.683 E11.91777
G1 X124.24 Y101.783 E11.95544
G1 X124.878 Y101.88 E11.9769
G1 X125.326 Y101.998 E11.99231
G1 X126.348 Y102.316 E12.02791
G1 X126.95 Y102.545 E12.04933
G1 X127.323 Y102.732 E12.06321
G1 X128.287 Y103.266 E12.09986
G1 X128.83 Y103.613 E12.1213
G1 X129.164 Y103.878 E12.13548
G1 X129.996 Y104.596 E12.17203
G1 X130.457 Y105.047 E12.19348
G1 X130.741 Y105.389 E12.20827
G1 X131.409 Y106.269 E12.24501
G1 X131.766 Y106.806 E12.26646
G1 X132.068 Y107.415 E12.28907
G1 X132.607 Y108.71 E12.33572
G1 X132.817 Y109.319 E12.35715
G1 X132.938 Y109.868 E12.37585
G1 X133.152 Y111.175 E12.4199
G1 X133.22 Y111.958 E12.44604
G1 X133.337 Y122.595 E12.79985
G1 X133.317 Y123.111 E12.81702
G1 X133.221 Y124.195 E12.85322
G1 X133.124 Y124.832 E12.87465
G1 X133.019 Y125.24 E12.88866
G1 X132.697 Y126.306 E12.9257
G1 X132.473 Y126.91 E12.94712
G1 X132.27 Y127.318 E12.96228
G1 X131.737 Y128.282 E12.99892
G1 X131.39 Y128.826 E13.02038
G1 X131.122 Y129.164 E13.03473
G1 X130.403 Y129.997 E13.07132
G1 X129.953 Y130.458 E13.09275
G1 X129.611 Y130.741 E13.10752
G1 X128.731 Y131.409 E13.14426
G1 X128.194 Y131.766 E13.16571
G1 X127.778 Y131.983 E13.18131
G1 X126.715 Y132.477 E13.2203
G1 X126.115 Y132.712 E13.24173
G1 X125.387 Y132.889 E13.26665
G1 X123.848 Y133.148 E13.31856
G1 X123.042 Y133.22 E13.34547
G1 X112.404 Y133.337 E13.69932
G1 X111.888 Y133.317 E13.71649
G1 X110.805 Y133.221 E13.75265
G1 X110.167 Y133.124 E13.77412
G1 X109.759 Y133.018 E13.78814
G1 X108.694 Y132.696 E13.82514
G1 X108.09 Y132.472 E13.84657
G1 X107.681 Y132.269 E13.86176
G1 X106.716 Y131.735 E13.89844
G1 X106.173 Y131.388 E13.91987
G1 X105.839 Y131.123 E13.93405
G1 X105.005 Y130.404 E13.97068
G1 X104.543 Y129.954 E13.99213
G1 X104.256 Y129.607 E14.00711
G1 X103.589 Y128.727 E14.04383
G1 X103.232 Y128.19 E14.06528
G1 X103.018 Y127.779 E14.08069
G1 X102.524 Y126.717 E14.11965
G1 X102.289 Y126.117 E14.14108
G1 X102.111 Y125.387 E14.16607
G1 X101.852 Y123.848 E14.21798
G1 X101.78 Y123.042 E14.24489
G1 X101.663 Y112.405 E14.5987
G1 X101.683 Y111.89 E14.61584
G1 X101.779 Y110.805 E14.65207
G1 X101.876 Y110.167 E14.67354
G1 X101.982 Y109.758 E14.68759
G1 X102.304 Y108.693 E14.72459
G1 X102.528 Y108.089 E14.74602
G1 X102.731 Y107.68 E14.76121
G1 X103.265 Y106.715 E14.79789
G1 X103.612 Y106.172 E14.81932
G1 X103.878 Y105.836 E14.83358
G1 X104.596 Y105.004 E14.87013
G1 X105.047 Y104.543 E14.89158
M204 S5000
M205 X30 Y30
G1 F2400 E9.89158
;MESH:swirl_vase.stl
G0 F3600 X108.188 Y107.804
G0 X108.715 Y108.514
G0 X110.501 Y108.024
G0 X110.535 Y108.117
M204 S500
M205 X20 Y20
;TYPE:WALL-OUTER
G1 F2400 E14.89158
G1 F1800 X110.348 Y108.227 E14.89879
G1 X109.586 Y108.627 E14.92742
G1 X109.437 Y108.775 E14.9344
G1 X108.793 Y109.346 E14.96303
G1 X108.683 Y109.525 E14.97002
G1 X108.194 Y110.233 E14.99864
G1 X108.128 Y110.441 E15.0059
G1 X107.825 Y111.239 E15.03429
G1 X107.812 Y111.449 E15.04128
G1 X107.709 Y112.29 E15.06946
G1 X107.816 Y114.304 E15.13654
G1 X107.817 Y122.917 E15.42301
G1 X107.886 Y123.209 E15.43299
G1 X108.117 Y124.465 E15.47547
G1 X108.227 Y124.652 E15.48269
G1 X108.627 Y125.414 E15.51131
G1 X108.775 Y125.563 E15.51829
G1 X109.346 Y126.207 E15.54692
G1 X109.525 Y126.317 E15.55391
G1 X110.233 Y126.806 E15.58253
G1 X110.445 Y126.873 E15.58992
G1 X111.239 Y127.175 E15.61818
G1 X111.454 Y127.189 E15.62534
G1 X112.29 Y127.291 E15.65335
G1 X114.304 Y127.184 E15.72043
G1 X122.917 Y127.183 E16.0069
G1 X123.216 Y127.113 E16.01712
G1 X124.465 Y126.883 E16.05936
G1 X124.652 Y126.773 E16.06657
G1 X125.414 Y126.373 E16.0952
G1 X125.563 Y126.225 E16.10218
G1 X126.207 Y125.654 E16.13081
G1 X126.317 Y125.475 E16.1378
G1 X126.806 Y124.767 E16.16642
G1 X126.873 Y124.555 E16.17381
G1 X127.175 Y123.761 E16.20207
G1 X127.188 Y123.551 E16.20906
G1 X127.291 Y122.71 E16.23724
G1 X127.184 Y120.696 E16.30432
G1 X127.183 Y112.083 E16.59079
G1 X127.112 Y111.781 E16.60111
G1 X126.883 Y110.535 E16.64325
G1 X126.773 Y110.348 E16.65046
G1 X126.373 Y109.586 E16.67909
G1 X126.225 Y109.437 E16.68607
G1 X125.654 Y108.793 E16.7147
G1 X125.475 Y108.683 E16.72169
G1 X124.767 Y108.194 E16.75031
G1 X124.555 Y108.127 E16.7577
G1 X123.761 Y107.825 E16.78596
G1 X123.546 Y107.811 E16.79312
G1 X122.71 Y107.709 E16.82113
G1 X120.696 Y107.816 E16.88821
G1 X112.082 Y107.817 E17.17472
G1 X111.779 Y107.889 E17.18508
G1 X110.535 Y108.117 E17.22714
M204 S5000
M205 X30 Y30
G0 F3600 X110.362 Y108.218
G0 X110.311 Y108.133
G0 X112.078 Y107.778
G0 X122.711 Y107.67
G0 X123.769 Y107.786
G0 X124.784 Y108.159
G0 X125.508 Y108.647
G0 X127.402 Y110.404
G0 X127.492 Y110.361
M204 S500
M205 X20 Y20
G1 F1800 X127.576 Y110.524 E17.23324
G1 X127.781 Y111.827 E17.27711
G1 X127.844 Y112.12 E17.28708
G1 X127.843 Y120.701 E17.57248
G1 X127.948 Y122.69 E17.63873
G1 X127.857 Y123.571 E17.66819
G1 X127.846 Y123.761 E17.67452
G1 X127.575 Y124.593 E17.70362
G1 X127.526 Y124.776 E17.70992
G1 X127.088 Y125.535 E17.73907
G1 X127.003 Y125.702 E17.7453
G1 X126.416 Y126.355 E17.77451
G1 X126.298 Y126.5 E17.78072
G1 X125.587 Y127.017 E17.80996
G1 X125.44 Y127.135 E17.81623
G1 X124.639 Y127.492 E17.8454
G1 X124.476 Y127.576 E17.8515
G1 X123.173 Y127.781 E17.89537
G1 X122.88 Y127.844 E17.90534
G1 X114.299 Y127.843 E18.19074
G1 X112.31 Y127.948 E18.25699
G1 X111.429 Y127.857 E18.28645
G1 X111.239 Y127.846 E18.29278
G1 X110.407 Y127.575 E18.32188
G1 X110.224 Y127.526 E18.32818
G1 X109.465 Y127.088 E18.35733
G1 X109.298 Y127.003 E18.36356
G1 X108.645 Y126.416 E18.39276
G1 X108.5 Y126.298 E18.39898
G1 X107.983 Y125.587 E18.42822
G1 X107.865 Y125.44 E18.43449
G1 X107.508 Y124.639 E18.46366
G1 X107.424 Y124.476 E18.46976
G1 X107.219 Y123.173 E18.51363
G1 X107.156 Y122.88 E18.5236
G1 X107.157 Y114.299 E18.809
G1 X107.052 Y112.306 E18.87538
G1 X107.143 Y111.429 E18.90471
G1 X107.154 Y111.239 E18.91104
G1 X107.425 Y110.407 E18.94014
G1 X107.474 Y110.224 E18.94644
G1 X107.912 Y109.465 E18.97559
G1 X107.997 Y109.298 E18.98182
G1 X108.584 Y108.645 E19.01102
G1 X108.702 Y108.5 E19.01724
G1 X109.413 Y107.983 E19.04648
G1 X109.56 Y107.865 E19.05275
G1 X110.361 Y107.508 E19.08192
G1 X110.524 Y107.424 E19.08802
G1 X111.827 Y107.219 E19.13189
G1 X112.12 Y107.156 E19.14186
G1 X120.701 Y107.157 E19.42726
G1 X122.69 Y107.052 E19.49351
G1 X123.571 Y107.143 E19.52297
G1 X123.763 Y107.154 E19.52936
G1 X124.593 Y107.425 E19.5584
G1 X124.776 Y107.474 E19.5647
G1 X125.535 Y107.912 E19.59385
G1 X125.702 Y107.997 E19.60008
G1 X126.355 Y108.584 E19.62929
G1 X126.5 Y108.702 E19.6355
G1 X127.017 Y109.413 E19.66474
G1 X127.135 Y109.56 E19.67101
G1 X127.492 Y110.361 E19.70018
M204 S5000
M205 X30 Y30
G0 F3600 X127.576 Y110.524
G0 X127.578 Y110.54
G0 X127.178 Y110.49
M204 S500
M205 X20 Y20
;TYPE:SKIN
G1 F1800 X126.932 Y109.962 E19.7253
M204 S5000
M205 X30 Y30
G0 F3600 X127.007 Y109.754
