;FLAVOR:Marlin
;TIME:1676
;Filament used: 0.427838m
;Layer height: 0.1
;Generated with Cura_SteamEngine master
M140 S60
M105
M190 S60
M104 S200
M105
M109 S200
M82 ;absolute extrusion mode
; Ender 3 Custom Start G-code
G28 ; Home all axes
G92 E0 ; Reset Extruder
G1 Z2.0 F3000 ; Move Z Axis up little to prevent scratching of Heat Bed
G1 X0.1 Y20 Z0.3 F5000.0 ; Move to start position
G1 X0.1 Y200.0 Z0.3 F1500.0 E15 ; Draw the first line
G1 X0.4 Y200.0 Z0.3 F5000.0 ; Move to side a little
G1 X0.4 Y20 Z0.3 F1500.0 E30 ; Draw the second line
G92 E0 ; Reset Extruder
G1 Z2.0 F3000 ; Move Z Axis up little to prevent scratching of Heat Bed
; End of custom start GCode
G92 E0
G1 F2400 E-5
;LAYER_COUNT:145
;LAYER:0
M107
M204 S5000
M205 X30 Y30
G0 F3600 X109.304 Y96.99 Z0.2
M204 S500
M205 X20 Y20
;TYPE:SKIRT
G1 F2400 E0
G1 F1800 X109.915 Y96.36 E0.02919
G1 X111.159 Y95.242 E0.08482
G1 X111.717 Y94.794 E0.10862
G1 X112.321 Y94.412 E0.13239
G1 X112.964 Y94.099 E0.15618
G1 X113.457 Y93.916 E0.17367
G1 X115.055 Y93.396 E0.22956
G1 X115.746 Y93.213 E0.25333
G1 X116.454 Y93.108 E0.27714
G1 X117.168 Y93.083 E0.3009
G1 X117.709 Y93.118 E0.31893
G1 X119.38 Y93.295 E0.37482
G1 X120.086 Y93.41 E0.39861
G1 X120.775 Y93.603 E0.42241
G1 X121.438 Y93.871 E0.4462
G1 X121.901 Y94.113 E0.46357
G1 X123.34 Y94.942 E0.51881
G1 X123.939 Y95.334 E0.54262
G1 X124.49 Y95.789 E0.56638
G1 X125.015 Y96.335 E0.59158
G1 X127.253 Y98.96 E0.70631
G1 X130.878 Y102.849 E0.88314
G1 X134.705 Y106.518 E1.05947
G1 X138.337 Y109.649 E1.21896
G1 X138.851 Y110.146 E1.24274
G1 X139.337 Y110.737 E1.26819
G1 X140.325 Y112.098 E1.32413
G1 X140.712 Y112.7 E1.34793
G1 X141.03 Y113.34 E1.3717
G1 X141.274 Y114.013 E1.39551
G1 X141.44 Y114.7 E1.41902
G1 X141.767 Y116.478 E1.47915
G1 X141.857 Y117.188 E1.50295
G1 X141.867 Y117.903 E1.52673
G1 X141.798 Y118.615 E1.55053
G1 X141.728 Y118.99 E1.56321
G1 X141.405 Y120.482 E1.61399
G1 X141.215 Y121.172 E1.63779
G1 X140.949 Y121.836 E1.66158
G1 X140.611 Y122.466 E1.68536
G1 X140.339 Y122.874 E1.70167
G1 X139.345 Y124.251 E1.75815
G1 X138.895 Y124.807 E1.78195
G1 X138.385 Y125.308 E1.80572
G1 X137.823 Y125.75 E1.8295
G1 X137.405 Y126.019 E1.84604
G1 X130.708 Y129.966 E2.10459
G1 X126.324 Y132.93 E2.2806
G1 X122.119 Y136.133 E2.45641
G1 X118.323 Y139.364 E2.62221
G1 X117.753 Y139.796 E2.646
G1 X117.384 Y140.027 E2.66047
G1 X115.914 Y140.879 E2.71699
G1 X115.276 Y141.203 E2.74079
G1 X114.606 Y141.453 E2.76457
G1 X113.913 Y141.627 E2.78834
G1 X113.371 Y141.707 E2.80656
G1 X111.698 Y141.882 E2.86251
G1 X110.983 Y141.917 E2.88631
G1 X110.27 Y141.871 E2.91008
G1 X109.565 Y141.747 E2.93389
G1 X108.888 Y141.547 E2.95737
G1 X107.189 Y140.943 E3.01734
G1 X106.53 Y140.666 E3.04112
G1 X105.905 Y140.318 E3.06491
G1 X105.324 Y139.901 E3.08869
G1 X105.03 Y139.65 E3.10155
G1 X103.883 Y138.608 E3.15309
G1 X103.381 Y138.098 E3.17689
G1 X102.939 Y137.536 E3.20067
G1 X102.428 Y136.665 E3.23426
G1 X101.578 Y134.913 E3.29903
G1 X99.082 Y130.199 E3.47644
G1 X96.3 Y125.593 E3.65541
G1 X94.777 Y123.267 E3.74788
G1 X94.278 Y122.348 E3.78266
G1 X93.65 Y120.926 E3.83437
G1 X93.398 Y120.256 E3.85818
G1 X93.222 Y119.563 E3.88196
G1 X93.125 Y118.854 E3.90576
G1 X93.107 Y118.16 E3.92885
G1 X93.158 Y116.352 E3.98901
G1 X93.218 Y115.639 E4.0128
G1 X93.357 Y114.937 E4.03661
G1 X93.574 Y114.256 E4.06038
G1 X93.724 Y113.895 E4.07338
G1 X94.363 Y112.482 E4.12496
G1 X94.693 Y111.848 E4.14873
G1 X95.093 Y111.254 E4.17255
G1 X95.556 Y110.709 E4.19634
G1 X95.945 Y110.333 E4.21433
G1 X100.59 Y106.21 E4.42091
G1 X104.379 Y102.502 E4.59723
G1 X108.002 Y98.531 E4.77602
G1 X109.304 Y96.99 E4.84312
M204 S5000
M205 X30 Y30
G0 F3600 X109.61 Y97.248
M204 S500
M205 X20 Y20
G1 F1800 X110.182 Y96.657 E4.87047
G1 X111.426 Y95.539 E4.9261
G1 X111.967 Y95.107 E4.94913
G1 X112.554 Y94.74 E4.97216
G1 X113.18 Y94.443 E4.9952
G1 X113.58 Y94.296 E5.00938
G1 X115.178 Y93.776 E5.06527
G1 X115.848 Y93.601 E5.0883
G1 X116.534 Y93.503 E5.11135
G1 X117.226 Y93.485 E5.13437
G1 X117.667 Y93.515 E5.14907
G1 X119.338 Y93.692 E5.20496
G1 X120.021 Y93.805 E5.22799
G1 X120.687 Y93.996 E5.25103
G1 X121.327 Y94.262 E5.27408
G1 X121.701 Y94.46 E5.28816
G1 X123.14 Y95.289 E5.34339
G1 X123.719 Y95.669 E5.36643
G1 X124.251 Y96.113 E5.38948
G1 X124.711 Y96.595 E5.41164
G1 X126.95 Y99.221 E5.52642
G1 X130.6 Y103.138 E5.70449
G1 X134.439 Y106.818 E5.88137
G1 X138.075 Y109.952 E6.04102
G1 X138.573 Y110.434 E6.06407
G1 X139.014 Y110.972 E6.08721
G1 X140.002 Y112.333 E6.14315
G1 X140.375 Y112.916 E6.16617
G1 X140.679 Y113.538 E6.18919
G1 X140.91 Y114.191 E6.21223
G1 X141.047 Y114.773 E6.23212
G1 X141.374 Y116.551 E6.29225
G1 X141.46 Y117.238 E6.31527
G1 X141.466 Y117.93 E6.33829
G1 X141.337 Y118.906 E6.37104
G1 X141.014 Y120.398 E6.42181
G1 X140.829 Y121.065 E6.44483
G1 X140.568 Y121.706 E6.46785
G1 X140.235 Y122.313 E6.49088
G1 X140.015 Y122.64 E6.50399
G1 X139.021 Y124.017 E6.56047
G1 X138.584 Y124.554 E6.5835
G1 X138.088 Y125.037 E6.60653
G1 X137.539 Y125.46 E6.62958
G1 X137.202 Y125.674 E6.64285
G1 X130.491 Y129.629 E6.90194
G1 X126.104 Y132.595 E7.07807
G1 X121.861 Y135.827 E7.25547
G1 X118.064 Y139.059 E7.42132
G1 X117.512 Y139.477 E7.44435
G1 X117.184 Y139.681 E7.45719
G1 X115.714 Y140.533 E7.51371
G1 X115.096 Y140.845 E7.53673
G1 X114.445 Y141.084 E7.5598
G1 X113.772 Y141.246 E7.58282
G1 X113.329 Y141.309 E7.5977
G1 X111.656 Y141.484 E7.65365
G1 X110.964 Y141.517 E7.67669
G1 X110.274 Y141.469 E7.6997
G1 X109.593 Y141.342 E7.72274
G1 X109.022 Y141.17 E7.74257
G1 X107.323 Y140.566 E7.80255
G1 X106.685 Y140.297 E7.82558
G1 X106.082 Y139.956 E7.84862
G1 X105.299 Y139.354 E7.88147
G1 X104.152 Y138.312 E7.93301
G1 X103.667 Y137.818 E7.95603
G1 X103.242 Y137.271 E7.97907
G1 X102.788 Y136.491 E8.00909
G1 X101.939 Y134.742 E8.07375
G1 X99.421 Y129.984 E8.2528
G1 X96.644 Y125.389 E8.43137
G1 X95.112 Y123.048 E8.52442
G1 X94.643 Y122.186 E8.55706
G1 X94.015 Y120.764 E8.60877
G1 X93.773 Y120.115 E8.6318
G1 X93.606 Y119.443 E8.65483
G1 X93.518 Y118.756 E8.67787
G1 X93.506 Y118.171 E8.69733
G1 X93.557 Y116.363 E8.75749
G1 X93.617 Y115.673 E8.78053
G1 X93.755 Y114.994 E8.80357
G1 X94.088 Y114.06 E8.83655
G1 X94.727 Y112.647 E8.88813
G1 X95.048 Y112.033 E8.91118
G1 X95.438 Y111.461 E8.9342
G1 X95.891 Y110.937 E8.95724
G1 X96.211 Y110.632 E8.97194
G1 X100.852 Y106.512 E9.17835
G1 X104.681 Y102.766 E9.35652
G1 X108.296 Y98.803 E9.53493
G1 X109.61 Y97.248 E9.60264
M204 S5000
M205 X30 Y30
G0 F3600 X109.915 Y97.506
M204 S500
M205 X20 Y20
G1 F1800 X110.45 Y96.955 E9.62818
G1 X111.694 Y95.837 E9.68381
G1 X112.217 Y95.42 E9.70606
G1 X112.787 Y95.069 E9.72832
G1 X113.704 Y94.677 E9.76149
G1 X115.302 Y94.157 E9.81739
G1 X115.95 Y93.988 E9.83966
G1 X116.612 Y93.898 E9.86188
G1 X117.281 Y93.887 E9.88413
G1 X117.625 Y93.913 E9.89561
G1 X119.296 Y94.09 E9.9515
G1 X119.956 Y94.2 E9.97375
G1 X120.598 Y94.388 E9.996
G1 X121.501 Y94.807 E10.02911
G1 X122.94 Y95.636 E10.08435
G1 X123.499 Y96.004 E10.10661
G1 X124.01 Y96.436 E10.12886
G1 X124.406 Y96.855 E10.14804
G1 X126.637 Y99.471 E10.26239
G1 X130.313 Y103.416 E10.44174
G1 X134.174 Y107.118 E10.61964
G1 X137.814 Y110.255 E10.77947
G1 X138.294 Y110.722 E10.80174
G1 X138.69 Y111.207 E10.82257
G1 X139.678 Y112.568 E10.8785
G1 X140.038 Y113.132 E10.90076
G1 X140.328 Y113.735 E10.92301
G1 X140.544 Y114.368 E10.94526
G1 X140.654 Y114.845 E10.96154
G1 X140.981 Y116.623 E11.02167
G1 X141.062 Y117.287 E11.04392
G1 X141.064 Y117.956 E11.06617
G1 X140.946 Y118.821 E11.09521
G1 X140.623 Y120.313 E11.14598
G1 X140.443 Y120.957 E11.16822
G1 X140.187 Y121.575 E11.19047
G1 X139.691 Y122.406 E11.22266
G1 X138.697 Y123.783 E11.27914
G1 X138.273 Y124.301 E11.30141
G1 X137.791 Y124.765 E11.32366
G1 X136.999 Y125.329 E11.356
G1 X130.286 Y129.285 E11.61516
G1 X125.863 Y132.276 E11.79275
G1 X121.611 Y135.515 E11.97053
G1 X117.805 Y138.754 E12.13675
G1 X117.27 Y139.157 E12.15903
G1 X116.983 Y139.335 E12.17026
G1 X115.513 Y140.187 E12.22677
G1 X114.915 Y140.487 E12.24902
G1 X114.286 Y140.714 E12.27126
G1 X113.634 Y140.864 E12.29352
G1 X113.288 Y140.912 E12.30513
G1 X111.615 Y141.087 E12.36108
G1 X110.946 Y141.116 E12.38335
G1 X110.279 Y141.066 E12.4056
G1 X109.623 Y140.937 E12.42784
G1 X109.156 Y140.793 E12.44409
G1 X107.457 Y140.189 E12.50407
G1 X106.841 Y139.928 E12.52632
G1 X106.261 Y139.595 E12.54856
G1 X105.567 Y139.058 E12.57775
G1 X104.42 Y138.016 E12.62929
G1 X103.953 Y137.537 E12.65154
G1 X103.546 Y137.006 E12.67379
G1 X103.148 Y136.316 E12.70028
G1 X102.295 Y134.559 E12.76525
G1 X99.774 Y129.796 E12.94448
G1 X96.976 Y125.165 E13.12444
G1 X95.447 Y122.829 E13.2173
G1 X95.009 Y122.024 E13.24778
G1 X94.381 Y120.602 E13.29949
G1 X94.148 Y119.975 E13.32173
G1 X93.991 Y119.325 E13.34397
G1 X93.913 Y118.66 E13.36624
G1 X93.906 Y118.182 E13.38214
G1 X93.957 Y116.374 E13.4423
G1 X94.016 Y115.708 E13.46454
G1 X94.154 Y115.053 E13.4868
G1 X94.453 Y114.225 E13.51608
G1 X95.092 Y112.812 E13.56766
G1 X95.403 Y112.219 E13.58993
G1 X95.783 Y111.669 E13.61217
G1 X96.226 Y111.167 E13.63444
G1 X96.476 Y110.931 E13.64587
G1 X101.136 Y106.794 E13.85313
G1 X104.965 Y103.048 E14.03129
G1 X108.589 Y99.075 E14.21015
G1 X109.915 Y97.506 E14.27848
M204 S5000
M205 X30 Y30
G0 F3600 X110.221 Y97.764
M204 S500
M205 X20 Y20
G1 F1800 X110.717 Y97.252 E14.30219
G1 X111.961 Y96.134 E14.35781
G1 X112.466 Y95.734 E14.37924
G1 X113.017 Y95.399 E14.40069
G1 X113.828 Y95.057 E14.42996
G1 X115.426 Y94.537 E14.48586
G1 X116.05 Y94.376 E14.50729
G1 X116.69 Y94.293 E14.52876
G1 X117.583 Y94.311 E14.55846
G1 X119.254 Y94.488 E14.61435
G1 X119.889 Y94.595 E14.63577
G1 X120.507 Y94.781 E14.65723
G1 X121.302 Y95.153 E14.68643
G1 X122.741 Y95.982 E14.74166
G1 X123.278 Y96.338 E14.76309
G1 X123.768 Y96.758 E14.78456
G1 X124.102 Y97.114 E14.80079
G1 X126.355 Y99.756 E14.91628
G1 X130.025 Y103.695 E15.09534
G1 X133.899 Y107.409 E15.27384
G1 X137.553 Y110.558 E15.43428
G1 X138.014 Y111.009 E15.45573
G1 X138.366 Y111.442 E15.47429
G1 X139.354 Y112.803 E15.53022
G1 X139.7 Y113.347 E15.55167
G1 X139.975 Y113.93 E15.57311
G1 X140.177 Y114.543 E15.59457
G1 X140.26 Y114.917 E15.60732
G1 X140.587 Y116.695 E15.66744
G1 X140.664 Y117.335 E15.68888
G1 X140.662 Y117.98 E15.71034
G1 X140.555 Y118.736 E15.73573
G1 X140.232 Y120.228 E15.78651
G1 X140.057 Y120.849 E15.80797
G1 X139.806 Y121.443 E15.82941
G1 X139.366 Y122.172 E15.85773
G1 X138.372 Y123.549 E15.91422
G1 X137.963 Y124.047 E15.93565
G1 X137.496 Y124.491 E15.95709
G1 X136.796 Y124.985 E15.98558
G1 X130.069 Y128.95 E16.2453
G1 X125.63 Y131.951 E16.42351
G1 X121.354 Y135.208 E16.60229
G1 X117.545 Y138.45 E16.76865
G1 X116.783 Y138.989 E16.7997
G1 X115.313 Y139.841 E16.85621
G1 X114.736 Y140.129 E16.87766
G1 X114.128 Y140.344 E16.89911
G1 X113.246 Y140.514 E16.92898
G1 X111.573 Y140.689 E16.98493
G1 X110.929 Y140.716 E17.00637
G1 X110.286 Y140.663 E17.02783
G1 X109.655 Y140.531 E17.04927
G1 X109.29 Y140.417 E17.06199
G1 X107.591 Y139.813 E17.12196
G1 X106.998 Y139.559 E17.14342
G1 X106.441 Y139.235 E17.16485
G1 X105.836 Y138.762 E17.19039
G1 X104.689 Y137.72 E17.24193
G1 X104.24 Y137.258 E17.26336
G1 X103.851 Y136.743 E17.28483
G1 X103.508 Y136.141 E17.30787
G1 X102.662 Y134.398 E17.37231
G1 X100.119 Y129.594 E17.5531
G1 X97.32 Y124.961 E17.73313
G1 X95.781 Y122.61 E17.82659
G1 X95.375 Y121.863 E17.85487
G1 X94.747 Y120.441 E17.90657
G1 X94.524 Y119.836 E17.92802
G1 X94.377 Y119.208 E17.94947
G1 X94.309 Y118.567 E17.97091
G1 X94.306 Y118.193 E17.98335
G1 X94.357 Y116.385 E18.0435
G1 X94.415 Y115.743 E18.06494
G1 X94.552 Y115.113 E18.08639
G1 X94.817 Y114.389 E18.11203
G1 X95.456 Y112.976 E18.16361
G1 X95.758 Y112.407 E18.18504
G1 X96.127 Y111.878 E18.20649
G1 X96.742 Y111.23 E18.2362
G1 X101.399 Y107.096 E18.44332
G1 X105.257 Y103.32 E18.62287
G1 X108.895 Y99.334 E18.80236
G1 X110.221 Y97.764 E18.87071
M204 S5000
M205 X30 Y30
G1 F2400 E13.87071
;MESH:prestacap.stl(1)
G0 F3600 X103.229 Y112.825
G0 X103.097 Y114.101
G0 X101.786 Y114.614
G0 X101.72 Y114.541
M204 S500
M205 X20 Y20
;TYPE:WALL-INNER
G1 F2400 E18.87071
G1 F1800 X101.738 Y114.524 E18.87153
G1 X101.761 Y114.517 E18.87233
G1 X103.072 Y114.09 E18.91819
G1 X103.095 Y114.082 E18.919
G1 X103.121 Y114.084 E18.91987
G1 X104.493 Y114.229 E18.96576
G1 X104.517 Y114.232 E18.96656
G1 X104.538 Y114.244 E18.96737
G1 X105.733 Y114.933 E19.01324
G1 X105.755 Y114.946 E19.01409
G1 X105.77 Y114.967 E19.01495
G1 X106.58 Y116.081 E19.06076
G1 X106.596 Y116.103 E19.06167
G1 X106.601 Y116.127 E19.06248
G1 X106.886 Y117.474 E19.10828
G1 X106.892 Y117.5 E19.10916
G1 X106.887 Y117.524 E19.10998
G1 X106.602 Y118.871 E19.15577
G1 X106.596 Y118.897 E19.15666
G1 X106.582 Y118.917 E19.15747
G1 X105.771 Y120.032 E19.20333
G1 X105.755 Y120.054 E19.20423
G1 X105.734 Y120.066 E19.20504
G1 X104.54 Y120.755 E19.25089
G1 X104.517 Y120.768 E19.25177
G1 X104.493 Y120.77 E19.25257
G1 X103.122 Y120.915 E19.29842
G1 X103.095 Y120.918 E19.29933
G1 X103.074 Y120.911 E19.30006
G1 X101.763 Y120.485 E19.34591
G1 X101.738 Y120.476 E19.34679
G1 X101.72 Y120.46 E19.3476
G1 X100.693 Y119.537 E19.39352
G1 X100.675 Y119.521 E19.39432
G1 X100.665 Y119.498 E19.39516
G1 X100.104 Y118.237 E19.44106
G1 X100.094 Y118.215 E19.44187
G1 X100.094 Y118.188 E19.44276
G1 X100.094 Y116.812 E19.48853
G1 X100.094 Y116.785 E19.48943
G1 X100.103 Y116.764 E19.49019
G1 X100.664 Y115.504 E19.53606
G1 X100.675 Y115.479 E19.53697
G1 X100.692 Y115.463 E19.53775
G1 X101.72 Y114.541 E19.58367
M204 S5000
M205 X30 Y30
G0 F3600 X101.786 Y114.614
G0 X100.695 Y115.495
G0 X100.775 Y115.553
M204 S500
M205 X20 Y20
G1 F1800 X100.215 Y116.812 E19.59753
G1 X100.215 Y118.188 E19.61137
G1 X100.775 Y119.447 E19.62519
G1 X101.8 Y120.369 E19.63902
G1 X103.11 Y120.795 E19.65288
G1 X104.479 Y120.651 E19.66653
G1 X105.673 Y119.962 E19.68028
G1 X106.483 Y118.847 E19.69411
G1 X106.769 Y117.5 E19.70795
G1 X106.483 Y116.153 E19.72166
G1 X105.673 Y115.038 E19.73544
G1 X104.479 Y114.349 E19.74919
G1 X103.11 Y114.205 E19.76294
G1 X101.8 Y114.631 E19.77674
G1 X100.775 Y115.553 E19.79058
M204 S5000
M205 X30 Y30
G0 F3600 X101.106 Y115.793
M204 S500
M205 X20 Y20
;TYPE:WALL-OUTER
G1 F1800 X100.615 Y116.897 E19.83077
G1 X100.615 Y118.103 E19.87088
G1 X101.106 Y119.207 E19.91106
G1 X102.004 Y120.015 E19.95124
G1 X103.153 Y120.388 E19.99142
G1 X104.353 Y120.262 E20.03155
G1 X105.399 Y119.658 E20.07173
G1 X106.109 Y118.681 E20.1119
G1 X106.36 Y117.5 E20.15205
G1 X106.109 Y116.319 E20.19221
G1 X105.399 Y115.342 E20.23238
G1 X104.353 Y114.738 E20.27255
G1 X103.153 Y114.612 E20.31269
G1 X102.004 Y114.985 E20.35286
G1 X101.106 Y115.793 E20.39304
M204 S5000
M205 X30 Y30
G0 F3600 X101.025 Y115.975
G0 X100.569 Y115.772
G0 X100.743 Y115.53
G0 X101.781 Y114.597
G0 X103.106 Y114.166
G0 X104.487 Y114.327
G0 X104.644 Y113.843
M204 S500
M205 X20 Y20
G1 F1800 X106.028 Y114.641 E20.44618
G1 X106.969 Y115.936 E20.49942
G1 X107.301 Y117.5 E20.5526
G1 X106.969 Y119.064 E20.60578
G1 X106.028 Y120.359 E20.65902
G1 X104.644 Y121.157 E20.71216
G1 X103.053 Y121.325 E20.76537
G1 X101.534 Y120.83 E20.8185
G1 X100.344 Y119.76 E20.87173
G1 X99.694 Y118.299 E20.92492
G1 X99.694 Y116.701 E20.97806
G1 X100.344 Y115.24 E21.03125
G1 X101.534 Y114.17 E21.08448
G1 X103.053 Y113.675 E21.13761
G1 X104.644 Y113.843 E21.19082
M204 S5000
M205 X30 Y30
G0 F3600 X104.817 Y113.942
G1 F2400 E16.19082
;MESH:prestacap.stl(4)
G0 F3600 X104.567 Y114.375
G0 X105.699 Y115.009
G0 X106.519 Y116.137
G0 X106.809 Y117.5
G0 X106.519 Y118.863
G0 X105.742 Y120.04
G0 X106.384 Y121.151
G0 X109.35 Y127.321
G0 X109.747 Y128.541
G0 X109.786 Y128.614
G0 X109.72 Y128.541
M204 S500
M205 X20 Y20
;TYPE:WALL-INNER
G1 F2400 E21.19082
G1 F1800 X109.738 Y128.524 E21.19165
G1 X109.761 Y128.517 E21.19245
G1 X111.072 Y128.09 E21.23831
G1 X111.095 Y128.082 E21.23912
G1 X111.121 Y128.084 E21.23998
G1 X112.493 Y128.229 E21.28587
G1 X112.517 Y128.232 E21.28668
G1 X112.538 Y128.244 E21.28748
G1 X113.733 Y128.933 E21.33336
G1 X113.755 Y128.946 E21.33421
G1 X113.77 Y128.967 E21.33507
G1 X114.58 Y130.081 E21.38088
G1 X114.596 Y130.103 E21.38178
G1 X114.601 Y130.127 E21.3826
G1 X114.886 Y131.474 E21.42839
